!!!!SEGMENT: pl-sa--1-a-i-1--004_dittersdorf-carl-ditters-von--symphonia-ex-c-presto.krn
!!!cenid: 17xx:577
!!!COM: Dittersdorf, Carl Ditters von
!!!COM-rismid: pe14522
!!!CDT: 1739/11/02-1799/10/24
!!!CNT: Austrian
!!!OPR: Symphonia ex C
!!!OTL: Presto
!!!OMV: 004
!!!PDT:
!!!AGN: Secular
!!!SMS-siglum: PL-SA
!!!SMS-shelfmark: 1/A I 1
!!!SMS-shelfwork: 001-004 M
!!!SMS-variant:
!!!SMS-altvar:
!!!NIFC-rismid: 1001034975
!!!URL-scan: http://bc.bdsandomierz.pl/dlibra/publication/1268/edition/1236/content
!!!ONB-nifc: UWAGA: części Symphonii: Allegro assai, Andante, Menuetto, Presto
!!!AIN: 3 empty 2 oboe 1 viola 2 violn
!!!key:
**kern	**dynam	**kern	**dynam	**kern	**dynam	**kern	**kern	**kern	**kern	**dynam	**kern	**dynam
*part8	*part8	*part7	*part7	*part6	*part6	*part5	*part4	*part3	*part2	*part2	*part1	*part1
*staff8	*	*staff7	*	*staff6	*	*staff5	*staff4	*staff3	*staff2	*	*staff1	*
*group4	*	*group3	*	*group3	*	*group3	*group2	*group2	*group1	*	*group1	*
*Iempty	*	*Iviola	*	*Ivioln	*	*Ivioln	*Iempty	*Iempty	*Ioboe	*	*Ioboe	*
*I"Baſso	*	*I"Viola	*	*I"Violino 2do	*	*I"Violino Imo	*I"Cornu 2do	*I"Cornu Imo	*I"Oboe 2do	*	*I"Oboe Imo	*
*I'B	*	*I'Vla	*	*I'Vl 2	*	*I'Vl 1	*I'Cor 2	*I'Cor 1	*I'Ob 2	*	*I'Ob 1	*
*clefF4	*	*clefC3	*	*clefG2	*	*clefG2	*clefG2	*clefG2	*clefG2	*	*clefG2	*
*k[]	*	*k[]	*	*k[]	*	*k[]	*k[]	*k[]	*k[]	*	*k[]	*
*C:	*	*C:	*	*C:	*	*C:	*C:	*C:	*C:	*	*C:	*
*M2/4	*	*M2/4	*	*M2/4	*	*M2/4	*M2/4	*M2/4	*M2/4	*	*M2/4	*
*>[AABB]	*	*[AABB]	*	*[AABB]	*	*[AABB]	*[AABB]	*[AABB]	*[AABB]	*	*[AABB]	*
=1	=1	=1	=1	=1	=1	=1	=1	=1	=1	=1	=1	=1
*>A	*>A	*>A	*>A	*>A	*>A	*>A	*>A	*>A	*>A	*>A	*>A	*>A
!LO:TX:a:t=Presto	!	!LO:TX:a:t=Presto	!	!LO:TX:a:t=Presto	!	!LO:TX:a:t=Presto	!LO:TX:a:t=Presto	!LO:TX:a:t=Presto	!LO:TX:a:t=Presto	!	!LO:TX:a:t=Presto	!
!	!	!	!	!	!	!	!LO:N:vis=00	!LO:N:vis=00	!LO:N:vis=00	!	!LO:N:vis=00	!
8.C/L	.	8.c/L	.	8.c/L	.	8.c/L	0r	0r	0r	.	0r	.
16C/Jk	.	16c/Jk	.	16c/Jk	.	16c/Jk	.	.	.	.	.	.
*Xtuplet	*	*	*	*Xtuplet	*	*Xtuplet	*	*	*	*	*	*
!LO:TX:a:t=problem:triole bez oznaczenia	!	!LO:TX:a:t=problem:klamra łukowa, kropka zamiast numeru	!	!LO:TX:a:t=problem:triole bez oznaczenia	!	!LO:TX:a:t=problem:triole bez oznaczenia	!	!	!	!	!	!
!	!	!LO:TUP:b	!	!	!	!	!	!	!	!	!	!
12AA/L	.	12A/L	.	12A/L	.	12A/L	.	.	.	.	.	.
12BB/	.	12B/	.	12B/	.	12B/	.	.	.	.	.	.
12C/J	.	12c/J	.	12c/J	.	12c/J	.	.	.	.	.	.
=2	=2	=2	=2	=2	=2	=2	=2	=2	=2	=2	=2	=2
8.D/L	.	8.d/L	.	8.d/L	.	8.d/L	.	.	.	.	.	.
16D/Jk	.	16d/Jk	.	16d/Jk	.	16d/Jk	.	.	.	.	.	.
!	!	!LO:TX:a:t=SIC:s=8.B	!	!	!	!	!	!	!	!	!	!
8.BB/L	.	8.A/L	.	8.B/L	.	8.B/L	.	.	.	.	.	.
!	!	!LO:TX:a:t=SIC:s=16G	!	!	!	!	!	!	!	!	!	!
16GG/Jk	.	16F/Jk	.	16G/Jk	.	16G/Jk	.	.	.	.	.	.
=3	=3	=3	=3	=3	=3	=3	=3	=3	=3	=3	=3	=3
!LO:TX:a:t=problem:caudy 8 left or center	!	!LO:TX:a:t=problem:caudy 8 left or center	!	!	!	!	!	!	!	!	!	!
8.E\L	.	8.e\L	.	8.e/L	.	8.e/L	.	.	.	.	.	.
!LO:TX:a:t=problem:caudy 16 left or center	!	!LO:TX:a:t=problem:caudy 16 left or center	!	!	!	!	!	!	!	!	!	!
16E\Jk	.	16e\Jk	.	16e/Jk	.	16e/Jk	.	.	.	.	.	.
!	!	!LO:TX:a:t=LO:TUP:a:problem=klamra łukowa, kropka zamiast numeru	!	!	!	!	!	!	!	!	!	!
!	!	!LO:TUP:b	!	!	!	!	!	!	!	!	!	!
12C\L	.	12c/L	.	12c/L	.	12c/L	.	.	.	.	.	.
12D\	.	12d/	.	12d/	.	12d/	.	.	.	.	.	.
12E\J	.	12e/J	.	12e/J	.	12e/J	.	.	.	.	.	.
=4	=4	=4	=4	=4	=4	=4	=4	=4	=4	=4	=4	=4
8.F\L	.	8.f\L	.	8.f/L	.	8.f/L	.	.	.	.	.	.
16F\Jk	.	16f\Jk	.	16f/Jk	.	16f/Jk	.	.	.	.	.	.
8.D\L	.	8.d\L	.	8.d/L	.	8.d/L	.	.	.	.	.	.
16BB\Jk	.	16B\Jk	.	16B/Jk	.	16B/Jk	.	.	.	.	.	.
=5	=5	=5	=5	=5	=5	=5	=5	=5	=5	=5	=5	=5
!	!	!	!	!	!	!	!LO:N:vis=00	!LO:N:vis=00	!LO:N:vis=00	!	!LO:N:vis=00	!
8.G\L	.	8.g\L	.	8.g/L	.	8.g/L	0r	0r	0r	.	0r	.
16G\Jk	.	16g\Jk	.	16g/Jk	.	16g/Jk	.	.	.	.	.	.
!	!	!LO:TX:a:t=LO:TUP:a:problem=klamra łukowa, kropka zamiast numeru	!	!	!	!	!	!	!	!	!	!
12E\L	.	12e\L	.	12e/L	.	12e/L	.	.	.	.	.	.
12F\	.	12f\	.	12f/	.	12f/	.	.	.	.	.	.
12G\J	.	12g\J	.	12g/J	.	12g/J	.	.	.	.	.	.
!LO:LB:g=original	!	!LO:LB:g=original	!	!	!	!	!	!	!	!	!	!
=6	=6	=6	=6	=6	=6	=6	=6	=6	=6	=6	=6	=6
!	!	!	!	!LO:TX:t=P:problem=mixed beam	!	!LO:TX:t=P:problem=mixed beam	!	!	!	!	!	!
8.A\L	.	8.a\L	.	8.a/L	.	8.a/L	.	.	.	.	.	.
16F\K	.	16f\K	.	16f/K	.	16f/K	.	.	.	.	.	.
8.D\	.	8.d\	.	8.d/	.	8.d/	.	.	.	.	.	.
!	!	!	!	!LO:TX:a:t=problem:caudy 16 left or center	!	!LO:TX:a:t=problem:caudy 16 left or center	!	!	!	!	!	!
16d\Jk	.	16dd\Jk	.	16dd/\k	.	16dd\Jk	.	.	.	.	.	.
=7	=7	=7	=7	=7	=7	=7	=7	=7	=7	=7	=7	=7
!LO:TX:a:t=problem:caudy 4 left or center	!	!LO:TX:a:t=problem:caudy 4 left or center	!	!LO:TX:a:t=problem:caudy 4 left or center	!	!LO:TX:a:t=problem:caudy 4 left or center	!	!	!	!	!	!
.	.	8qqcc/	.	8qqcc/	.	8qqcc/	.	.	.	.	.	.
4B\	.	4b\	.	4b\	.	4b\	.	.	.	.	.	.
!	!	!	!	!LO:TX:a:t=problem:caudy 8 left or center	!	!LO:TX:a:t=problem:caudy 8 left or center	!	!	!	!	!	!
8A\L	.	8a\L	.	8a\L	.	8a\L	.	.	.	.	.	.
8B\J	.	8b\J	.	8b\J	.	8b\J	.	.	.	.	.	.
!	!	!	!	!LO:LB:g=original	!	!	!	!	!	!	!	!
=8	=8	=8	=8	=8	=8	=8	=8	=8	=8	=8	=8	=8
!	!	!	!	!	!	!LO:TX:t=P:problem=mixed beam	!	!	!	!	!	!
8c\L	.	8cc\L	.	8cc/L	.	8cc\L	.	.	.	.	.	.
8G\	.	8g\	.	8g/	.	8g\	.	.	.	.	.	.
8E\	.	8e\	.	8e/	.	8e/	.	.	.	.	.	.
8C\J	.	8c\J	.	8c/J	.	8c/J	.	.	.	.	.	.
!	!	!	!	!	!	!LO:LB:g=original	!	!	!	!	!	!
=9	=9	=9	=9	=9	=9	=9	=9	=9	=9	=9	=9	=9
*	*	*	*	*	*	*	*	*	*	*	*2\right	*
!	!	!	!	!	!	!	!LO:N:vis=00	!LO:N:vis=00	!	!	!	!
4E\	p	4G/	p	8.c/L	p	8.c/L	0r	0r	4g/	p	2cc\	p
.	.	.	.	16c/Jk	.	16c/Jk	.	.	.	.	.	.
4F\	.	4A/	.	12A/L	.	12A/L	.	.	4a/	.	.	.
.	.	.	.	12B/	.	12B/	.	.	.	.	.	.
.	.	.	.	12c/J	.	12c/J	.	.	.	.	.	.
=10	=10	=10	=10	=10	=10	=10	=10	=10	=10	=10	=10	=10
4F#X\	.	4A/	.	8.d/L	.	8.d/L	.	.	4a/	.	2dd\	.
.	.	.	.	16d/Jk	.	16d/Jk	.	.	.	.	.	.
4G\	.	4B/	.	8.B/L	.	8.B/L	.	.	4b/	.	.	.
.	.	.	.	16G/Jk	.	16G/Jk	.	.	.	.	.	.
=11	=11	=11	=11	=11	=11	=11	=11	=11	=11	=11	=11	=11
!	!	!	!	!	!	!	!	!	!LO:TX:a:t=problem:caudy 4 left or center	!	!	!
4G#X\	.	4B/	.	8.e/L	.	8.e/L	.	.	4b\	.	2ee\	.
.	.	.	.	16e/Jk	.	16e/Jk	.	.	.	.	.	.
4A\	.	4c/	.	12c/L	.	12c/L	.	.	4cc\	.	.	.
.	.	.	.	12d/	.	12d/	.	.	.	.	.	.
.	.	.	.	12e/J	.	12e/J	.	.	.	.	.	.
=12	=12	=12	=12	=12	=12	=12	=12	=12	=12	=12	=12	=12
4A\	.	4c\	.	8.f/L	.	8.f/L	.	.	4cc\	.	2ff\	.
.	.	.	.	16f/K	.	16f/K	.	.	.	.	.	.
4B\	.	4d\	.	8.d/	.	8.d/	.	.	4dd\	.	.	.
.	.	.	.	16B/Jk	.	16B/Jk	.	.	.	.	.	.
=13	=13	=13	=13	=13	=13	=13	=13	=13	=13	=13	=13	=13
!	!	!	!	!	!	!	!LO:N:vis=00	!LO:N:vis=00	!	!	!	!
4B\	.	4d\	.	8.g/L	.	8.g/L	0r	0r	4dd\	.	2gg\	.
.	.	.	.	16g/Jk	.	16g/Jk	.	.	.	.	.	.
4c\	.	8.e\L	.	12e/L	.	12e/L	.	.	4ee\	.	.	.
.	.	.	.	12f/	.	12f/	.	.	.	.	.	.
.	.	.	.	12g/J	.	12g/J	.	.	.	.	.	.
.	.	16c\Jk	.	.	.	.	.	.	.	.	.	.
!	!	!LO:LB:g=original	!	!	!	!	!	!	!	!	!	!
=14	=14	=14	=14	=14	=14	=14	=14	=14	=14	=14	=14	=14
*2\right	*	*	*	*	*	*	*	*	*	*	*	*
!	!	!	!	!LO:TX:t=P:problem=mixed beam	!	!LO:TX:t=P:problem=mixed beam	!	!	!	!	!LO:TX:a:t=problem:caudy 4\ left or center	!
2F\	.	4c\	.	8.a/L	.	8.a/L	.	.	4cc\	.	4aa\	.
.	.	.	.	16f/K	.	16f/K	.	.	.	.	.	.
.	.	4f\	.	8.d/	.	8.d/	.	.	4r	.	4r	.
.	.	.	.	16dd\Jk	.	16dd\Jk	.	.	.	.	.	.
=15	=15	=15	=15	=15	=15	=15	=15	=15	=15	=15	=15	=15
.	.	.	.	8qqcc/	.	8qqcc/	.	.	.	.	.	.
!	!	!	!	!	!	!	!	!	!LO:N:vis=0	!	!LO:N:vis=0	!
2G\	.	4d\	.	4b\	.	4b\	.	.	1r	.	1r	.
.	.	8c\L	.	8a\L	.	8a\L	.	.	.	.	.	.
.	.	8d\J	.	8b\J	.	8b\J	.	.	.	.	.	.
=16	=16	=16	=16	=16	=16	=16	=16	=16	=16	=16	=16	=16
4c\	.	4e\	.	4cc\	.	4cc\	.	.	.	.	.	.
4C/	.	4C/	.	4c/	.	4c/	.	.	.	.	.	.
!	!	!	!	!LO:LB:g=original	!	!	!	!	!	!	!	!
=17	=17	=17	=17	=17	=17	=17	=17	=17	=17	=17	=17	=17
*	*	*	*	*^	*	*^	*	*	*	*	*	*
*	*	*	*	*Xtremolo	*tremolo	*	*	*	*	*	*	*	*	*
!	!	!	!LO:DY:t=ffr	!	!LO:TX:a:t=problem: 4 umieszczona między drugą a trzecią 16 w grupie	!	!LO:TX:a:t=problem:4 umieszczona nad drugą 16 w grupie	!	!	!	!LO:TX:a:t=problem:caudy 8 left or center	!	!	!
8c\L	f	8cc\L	ff	16ee/LL	16g\L	.	4gg/	16ee\LL	4r	4r	8ee\L	.	2gg\	.
.	.	.	.	16ee/	16g\	.	.	16ee\	.	.	.	.	.	.
8B\	.	8b\	.	16dd/	16g\	.	.	16dd\	.	.	8dd\	.	.	.
.	.	.	.	16dd/JJ	16g\J	.	.	16dd\JJ	.	.	.	.	.	.
!	!	!	!	!	!LO:TX:a:t=problem: 4 umieszczona między drugą a trzecią 16 w grupie	!	!LO:TX:a:t=problem:4 umieszczona nad drugą 16 w grupie	!	!	!LO:TX:a:t=problem:caudy 8 left or center	!	!	!	!
8c\	.	8cc\	.	16ee/LL	16g\L	.	4gg/	16ee\LL	8g/L	8gg\L	8ee\	.	.	.
.	.	.	.	16ee/	16g\	.	.	16ee\	.	.	.	.	.	.
8B\J	.	8b\J	.	16dd/	16g\	.	.	16dd\	8g/J	8gg\J	8dd\J	.	.	.
.	.	.	.	16dd/JJ	16g\J	.	.	16dd\JJ	.	.	.	.	.	.
!LO:LB:g=original	!	!	!	!	!	!	!LO:LB:g=original	!	!	!	!	!	!	!
=18	=18	=18	=18	=18	=18	=18	=18	=18	=18	=18	=18	=18	=18	=18
*	*	*	*	*Xtremolo	*tremolo	*	*	*	*	*2\right	*	*	*	*
!	!	!	!	!	!LO:TX:a:t=problem:4 umieszczona między pierwszą a drugą 16 w grupie	!	!LO:TX:a:t=problem:4 umieszczona nad drugą 16 w grupie	!	!	!	!	!	!	!
8c\L	.	8cc\L	.	16cc/LL	16g\L	.	4gg/	16ee\LL	2g/	2gg\	8cc\L	.	2gg\	.
.	.	.	.	16cc/	16g\	.	.	16ee\	.	.	.	.	.	.
8G\J	.	8g\J	.	16b/	16g\	.	.	16dd\	.	.	8b\J	.	.	.
.	.	.	.	16b/JJ	16g\J	.	.	16dd\JJ	.	.	.	.	.	.
4G\	.	4g\	.	8b/	8g\	.	4ryy	8dd\	.	.	4b\	.	.	.
.	.	.	.	8r	8ryy	.	.	8rdd	.	.	.	.	.	.
!	!	!	!	!	!	!	!	!	!	!	!LO:LB:g=original	!	!	!
=19	=19	=19	=19	=19	=19	=19	=19	=19	=19	=19	=19	=19	=19	=19
*	*	*	*	*Xtremolo	*tremolo	*	*	*	*	*	*	*	*	*
!	!	!	!	!	!LO:TX:a:t=problem:4 umieszczona między drugą a trzecią 16 w grupie	!	!LO:TX:a:t=problem:4 umieszczona między drugą a trzecią 16 w grupie	!	!	!	!	!	!	!
8A\L	.	8a\L	.	16cc/LL	16e\L	.	4ee/	16cc\LL	4r	4r	8cc\L	.	2ee\	.
.	.	.	.	16cc/	16e\	.	.	16cc\	.	.	.	.	.	.
8G#X\	.	8g#X\	.	16b/	16e\	.	.	16b\	.	.	8b\	.	.	.
.	.	.	.	16b/JJ	16e\J	.	.	16b\JJ	.	.	.	.	.	.
!	!	!	!	!	!LO:TX:a:t=problem:4 umieszczona między drugą a trzecią 16 w grupie	!	!LO:TX:a:t=problem:4 umieszczona między drugą a trzecią 16 w grupie	!	!	!	!	!	!	!
8A\	.	8a\	.	16cc/LL	16e\L	.	4ee/	16cc\LL	8e/L	8ee\L	8cc\	.	.	.
.	.	.	.	16cc/	16e\	.	.	16cc\	.	.	.	.	.	.
8G#\J	.	8g#\J	.	16b/	16e\	.	.	16b\	8e/J	8ee\J	8b\J	.	.	.
.	.	.	.	16b/JJ	16e\J	.	.	16b\JJ	.	.	.	.	.	.
*	*	*	*	*v	*v	*	*	*	*	*	*	*	*	*
=20	=20	=20	=20	=20	=20	=20	=20	=20	=20	=20	=20	=20	=20
*	*	*	*	*Xtremolo	*	*	*	*	*	*	*	*	*
!	!	!	!	!	!	!LO:TX:a:t=problem:4 umieszczona między drugą a trzecią 16 w grupie	!	!	!	!	!	!	!
8A\L	.	8a\L	.	16e/LL 16a	.	4ee/	16cc\LL	2e/	2ee\	8a/L	.	2ee\	.
.	.	.	.	16e/ 16a	.	.	16cc\	.	.	.	.	.	.
8E\J	.	8e\J	.	16g#X/	.	.	16b\	.	.	8g#X/J	.	.	.
.	.	.	.	16g#/JJ	.	.	16b\JJ	.	.	.	.	.	.
4E\	.	4e\	.	8g#/	.	4ryy	8b\	.	.	4g#/	.	.	.
.	.	.	.	8r	.	.	8rdd	.	.	.	.	.	.
=21	=21	=21	=21	=21	=21	=21	=21	=21	=21	=21	=21	=21	=21
*	*	*	*	*^	*	*	*	*	*	*	*	*	*
*	*	*	*	*Xtremolo	*tremolo	*	*	*	*	*	*	*	*	*
!	!	!	!	!	!LO:TX:a:t=problem:4 umieszczona pod drugą 16 w grupie	!	!LO:TX:a:t=problem:4 umieszczona między drugą a trzecią 16 w grupie	!	!	!	!	!	!	!
8F\L	.	8f\L	.	16a/LL	16c\L	.	4cc/	16a\LL	4r	4r	8a/L	.	2cc\	.
.	.	.	.	16a/	16c\	.	.	16a\	.	.	.	.	.	.
8E\	.	8e\	.	16g/	16c\	.	.	16g\	.	.	8gn/	.	.	.
.	.	.	.	16g/JJ	16c\J	.	.	16g\JJ	.	.	.	.	.	.
!	!	!	!	!	!LO:TX:a:t=problem:4 umieszczona pod drugą 16 w grupie	!	!LO:TX:a:t=problem:4 umieszczona między drugą a trzecią 16 w grupie	!	!	!	!	!	!	!
8F\	.	8f\	.	16a/LL	16c\L	.	4cc/	16a\LL	8c/L	8cc\L	8a/	.	.	.
.	.	.	.	16a/	16c\	.	.	16a\	.	.	.	.	.	.
8E\J	.	8d\J	.	16g/	16c\	.	.	16g\	8c/J	8cc\J	8g/J	.	.	.
.	.	.	.	16g/JJ	16c\J	.	.	16g\JJ	.	.	.	.	.	.
=22	=22	=22	=22	=22	=22	=22	=22	=22	=22	=22	=22	=22	=22	=22
*	*	*	*	*Xtremolo	*tremolo	*	*	*	*	*	*	*	*	*
!	!	!	!	!	!LO:TX:a:t=problem:4 umieszczona pod drugą 16 w grupie	!	!LO:TX:a:t=problem:4 umieszczona między drugą a trzecią 16 w grupie	!	!	!	!	!	!	!
8F\L	.	8f\L	.	16f/LL	16c\L	.	4cc/	16a\LL	2c/	2cc\	8f/L	.	2cc\	.
.	.	.	.	16f/	16c\	.	.	16a\	.	.	.	.	.	.
8C\J	.	8c\J	.	16e/	16c\	.	.	16g\	.	.	8e/J	.	.	.
.	.	.	.	16e/JJ	16c\J	.	.	16g\JJ	.	.	.	.	.	.
4C\	.	4c\	.	8e/	8c\	.	4ryy	8g\	.	.	4e/	.	.	.
.	.	.	.	8r	8ryy	.	.	8rdd	.	.	.	.	.	.
*	*	*	*	*v	*v	*	*	*	*	*	*	*	*	*
*	*	*	*	*	*	*v	*v	*	*	*	*	*	*
!	!	!LO:LB:g=original	!	!LO:LB:g=original	!	!	!	!	!	!	!LO:LB:g=original	!
=23	=23	=23	=23	=23	=23	=23	=23	=23	=23	=23	=23	=23
*	*	*	*	*Xtremolo	*	*	*	*	*	*	*	*
!	!	!	!	!	!	!	!	!LO:TX:a:t=problem:caudy 4 left or center	!	!	!	!
4G\	.	4g\	.	4G/ 4d 4b	.	8ff\L	4g/	4dd\	4dd\	.	4ff\	.
.	.	.	.	.	.	16ddd\L	.	.	.	.	.	.
.	.	.	.	.	.	16ff\JJ	.	.	.	.	.	.
!	!	!	!	!	!	!	!LO:TX:a:t=problem:caudy 4 left or center	!	!	!	!	!
4C/	.	4c\	.	4G/ 4e 4cc	.	8ee\L	4cc\	4ee\	4cc\	.	4ee\	.
.	.	.	.	.	.	16ccc\L	.	.	.	.	.	.
.	.	.	.	.	.	16ee\JJ	.	.	.	.	.	.
=24	=24	=24	=24	=24	=24	=24	=24	=24	=24	=24	=24	=24
4G\	.	4g\	.	4cc\	.	4ee\	4cc\	4ee\	4cc\	.	4ee\	.
!	!	!	!	!	!	!	!	!	!	!	!LO:TX:a:t=problem:caudy 8\ left or center	!
4GG/	.	4G/	.	8b\	.	8dd\	8g/	8dd\	8b\	.	8dd\	.
.	.	.	.	8r	.	8r	8r	8r	8r	.	8r	.
!	!	!	!	!	!	!LO:LB:g=original	!LO:LB:g=original	!LO:LB:g=original	!	!	!	!
=25	=25	=25	=25	=25	=25	=25	=25	=25	=25	=25	=25	=25
!LO:N:vis=00	!	!LO:N:vis=00	!	!LO:N:vis=0	!	!	!LO:N:vis=00	!LO:N:vis=00	!	!	!	!
0r	.	0r	.	1r	.	8.g/L	0r	0r	2g/	p	2g/	.
.	.	.	.	.	.	16g/Jk	.	.	.	.	.	.
!	!	!	!	!	!	!LO:TX:a:t=problem:niewyraźny zapis	!	!	!	!	!	!
.	.	.	.	.	.	8g/L	.	.	.	.	.	.
.	.	.	.	.	.	8g/J	.	.	.	.	.	.
=26	=26	=26	=26	=26	=26	=26	=26	=26	=26	=26	=26	=26
.	.	.	.	.	.	8.a/L	.	.	2a/	.	2a/	.
.	.	.	.	.	.	16a/K	.	.	.	.	.	.
.	.	.	.	.	.	8f#X/	.	.	.	.	.	.
.	.	.	.	.	.	8d/J	.	.	.	.	.	.
=27	=27	=27	=27	=27	=27	=27	=27	=27	=27	=27	=27	=27
.	.	.	.	8.g/L	p	8.b\L	.	.	2g/	.	2b/	.
.	.	.	.	16g/Jk	.	16b\Jk	.	.	.	.	.	.
.	.	.	.	12g/L	.	12b\L	.	.	.	.	.	.
.	.	.	.	12f/	.	12a\	.	.	.	.	.	.
.	.	.	.	.	.	.	.	.	.	.	.	.
.	.	.	.	12g/J	.	12b\J	.	.	.	.	.	.
=28	=28	=28	=28	=28	=28	=28	=28	=28	=28	=28	=28	=28
.	.	.	.	8.a/L	.	8.cc\L	.	.	2a/	.	2cc/	.
.	.	.	.	16a/K	.	16cc\Jk	.	.	.	.	.	.
.	.	.	.	8f#X/	.	8.a/L	.	.	.	.	.	.
.	.	.	.	8d/J	.	.	.	.	.	.	.	.
.	.	.	.	.	.	16f/Jk	.	.	.	.	.	.
=29	=29	=29	=29	=29	=29	=29	=29	=29	=29	=29	=29	=29
!	!	!	!	!	!	!LO:TX:t=P:problem=mixed beam	!LO:N:vis=00	!LO:N:vis=00	!	!	!	!
8.G\L	f	2G/	f	8.b/L	f	16d/LL	0r	0r	2b/	f	2dd\	.
.	.	.	.	.	.	16dd\	.	.	.	.	.	.
.	.	.	.	.	.	16d/	.	.	.	.	.	.
16G\Jk	.	.	.	16b/Jk	.	16dd\JJ	.	.	.	.	.	.
!	!	!	!	!	!	!LO:TX:t=P:problem=mixed beam	!	!	!	!	!	!
12G\L	.	.	.	12b/L	.	16d/LL	.	.	.	.	.	.
.	.	.	.	.	.	16dd\	.	.	.	.	.	.
12F#X\	.	.	.	12a/	.	.	.	.	.	.	.	.
.	.	.	.	.	.	16d/	.	.	.	.	.	.
12G\J	.	.	.	12b/J	.	.	.	.	.	.	.	.
.	.	.	.	.	.	16dd\JJ	.	.	.	.	.	.
=30	=30	=30	=30	=30	=30	=30	=30	=30	=30	=30	=30	=30
*	*	*	*	*	*	*tremolo	*	*	*	*	*	*
8.A\L	.	2A/	.	8.cc\L	.	16d/L 16dd	.	.	2cc/	.	2dd\	.
.	.	.	.	.	.	16d/ 16dd	.	.	.	.	.	.
.	.	.	.	.	.	16d/ 16dd	.	.	.	.	.	.
16A\K	.	.	.	16cc\J	.	16d/ 16dd	.	.	.	.	.	.
8.F#X\	.	.	.	8a/L	.	16d/ 16dd	.	.	.	.	.	.
!	!	!	!	!LO:TX:a:t=SIC:s=8f#	!	!	!	!	!	!	!	!
.	.	.	.	.	.	16d/ 16dd	.	.	.	.	.	.
.	.	.	.	8d/J 8f	.	16d/ 16dd	.	.	.	.	.	.
16D\Jk	.	.	.	.	.	16d/J 16dd	.	.	.	.	.	.
!LO:LB:g=original	!	!	!	!	!	!	!	!	!LO:LB:g=original	!	!	!
=31	=31	=31	=31	=31	=31	=31	=31	=31	=31	=31	=31	=31
*	*	*	*	*	*	*tremolo	*	*	*	*	*	*
!	!	!	!	!	!	!	!	!	!	!	!	!
8.B\L	.	2B/	.	8.g/L	.	16d/L 16dd	.	.	2b/	.	2dd\	.
.	.	.	.	.	.	16d/ 16dd	.	.	.	.	.	.
.	.	.	.	.	.	16d/ 16dd	.	.	.	.	.	.
16B\Jk	.	.	.	16g/Jk	.	16d/ 16dd	.	.	.	.	.	.
12B\L	.	.	.	12g/L	.	16d/ 16dd	.	.	.	.	.	.
.	.	.	.	.	.	16d/ 16dd	.	.	.	.	.	.
12A\	.	.	.	12f#X/	.	.	.	.	.	.	.	.
.	.	.	.	.	.	16d/ 16dd	.	.	.	.	.	.
12B\J	.	.	.	12g/J	.	.	.	.	.	.	.	.
.	.	.	.	.	.	16d/J 16dd	.	.	.	.	.	.
=32	=32	=32	=32	=32	=32	=32	=32	=32	=32	=32	=32	=32
!	!	!	!	!	!	!LO:TX:a:t=bis	!	!	!	!	!	!
8.c\L	.	4c\	.	8.a/L	.	16d/L 16dd	.	.	2f#X/	.	2dd\	.
.	.	.	.	.	.	16d/ 16dd	.	.	.	.	.	.
.	.	.	.	.	.	16d/ 16dd	.	.	.	.	.	.
16c\	.	.	.	16a/K	.	16d/ 16dd	.	.	.	.	.	.
8.A\	.	4A/	.	8.f#X/	.	16d/ 16dd	.	.	.	.	.	.
!LO:TX:a:t=SIC:s=16F#	!	!	!	!	!	!	!	!	!	!	!	!
.	.	.	.	.	.	16d/ 16dd	.	.	.	.	.	.
.	.	.	.	.	.	16d/ 16dd	.	.	.	.	.	.
16F\J	.	.	.	16d/Jk	.	16d/J 16dd	.	.	.	.	.	.
!	!	!	!	!LO:LB:g=original	!	!	!	!	!	!	!	!
=33	=33	=33	=33	=33	=33	=33	=33	=33	=33	=33	=33	=33
!	!	!	!	!	!	!	!LO:N:vis=00	!LO:N:vis=00	!	!	!	!
8.G\L	.	2G/	.	8.b/L	.	16d/L 16dd	0r	0r	2g/	.	2ddd\	.
.	.	.	.	.	.	16d/ 16dd	.	.	.	.	.	.
.	.	.	.	.	.	16d/ 16dd	.	.	.	.	.	.
16G\Jk	.	.	.	16b/Jk	.	16d/ 16dd	.	.	.	.	.	.
12G\L	.	.	.	12b/L	.	16d/ 16dd	.	.	.	.	.	.
.	.	.	.	.	.	16d/ 16dd	.	.	.	.	.	.
12F#X\	.	.	.	12a/	.	.	.	.	.	.	.	.
.	.	.	.	.	.	16d/ 16dd	.	.	.	.	.	.
12G\J	.	.	.	12b/J	.	.	.	.	.	.	.	.
.	.	.	.	.	.	16d/J 16dd	.	.	.	.	.	.
=34	=34	=34	=34	=34	=34	=34	=34	=34	=34	=34	=34	=34
!	!	!	!	!	!	!LO:TX:a:t=problem:repetycja tt.31-33	!	!	!	!	!	!
8.A\L	.	2A/	.	8.cc\L	.	16d/Lyy 16ddyy	.	.	2cc/	.	2ddd\	.
.	.	.	.	.	.	16d/yy 16ddyy	.	.	.	.	.	.
.	.	.	.	.	.	16d/yy 16ddyy	.	.	.	.	.	.
16A\Jk	.	.	.	16cc\Jk	.	16d/yy 16ddyy	.	.	.	.	.	.
8.F#X\L	.	.	.	8.a/L	.	16d/yy 16ddyy	.	.	.	.	.	.
.	.	.	.	.	.	16d/yy 16ddyy	.	.	.	.	.	.
.	.	.	.	.	.	16d/yy 16ddyy	.	.	.	.	.	.
16D\Jk	.	.	.	16d/Jk	.	16d/Jyy 16ddyy	.	.	.	.	.	.
=35	=35	=35	=35	=35	=35	=35	=35	=35	=35	=35	=35	=35
*	*	*	*	*	*	*	*	*	*2\right	*	*	*
8.B\L	.	2B/	.	8.g/L	.	16d/Lyy 16ddyy	.	.	2b\	.	2ddd\	.
.	.	.	.	.	.	16d/yy 16ddyy	.	.	.	.	.	.
.	.	.	.	.	.	16d/yy 16ddyy	.	.	.	.	.	.
16B\Jk	.	.	.	16g/Jk	.	16d/yy 16ddyy	.	.	.	.	.	.
12B\L	.	.	.	12g/L	.	16d/yy 16ddyy	.	.	.	.	.	.
.	.	.	.	.	.	16d/yy 16ddyy	.	.	.	.	.	.
12A\	.	.	.	12f#X/	.	.	.	.	.	.	.	.
.	.	.	.	.	.	16d/yy 16ddyy	.	.	.	.	.	.
12B\J	.	.	.	12g/J	.	.	.	.	.	.	.	.
.	.	.	.	.	.	16d/Jyy 16ddyy	.	.	.	.	.	.
=36	=36	=36	=36	=36	=36	=36	=36	=36	=36	=36	=36	=36
8c\L	.	4c\	.	8.a/L	.	16d/Lyy 16ddyy	.	.	2f#X/	.	2ddd\	.
.	.	.	.	.	.	16d/yy 16ddyy	.	.	.	.	.	.
8c\	.	.	.	.	.	16d/yy 16ddyy	.	.	.	.	.	.
.	.	.	.	16a/K	.	16d/yy 16ddyy	.	.	.	.	.	.
!	!	!LO:TX:t=P:problem=mixed beam	!	!	!	!	!	!	!	!	!	!
8.A\	.	8.A/L	.	8.f#X/	.	16d/yy 16ddyy	.	.	.	.	.	.
.	.	.	.	.	.	16d/yy 16ddyy	.	.	.	.	.	.
.	.	.	.	.	.	16d/yy 16ddyy	.	.	.	.	.	.
!LO:TX:a:t=SIC:s=16F#	!	!	!	!	!	!	!	!	!	!	!	!
16F\Jk	.	16a\Jk	.	16d/Jk	.	16d/Jyy 16ddyy	.	.	.	.	.	.
!	!	!	!	!	!	!	!	!	!	!	!LO:LB:g=original	!
*	*	*	*	*	*	*Xtremolo	*	*	*	*	*	*
=37	=37	=37	=37	=37	=37	=37	=37	=37	=37	=37	=37	=37
!	!	!	!	!LO:TX:t=P:problem=mixed beam	!	!	!	!	!LO:TX:t=P:problem=mixed beam	!	!	!
8.G\L	.	8.g\L	.	8.g/L	.	8.b\L	8.g/L	8.dd\L	8.g/L	.	8.bb\L	.
!	!	!	!	!	!	!	!	!LO:TX:a:t=problem:caudy 16 left or center	!LO:TX:a:t=problem:caudy 16 left or center	!	!LO:TX:a:t=problem:caudy 16 left or center	!
16G\Jk	.	16g\Jk	.	16gg\Jk	.	16bb\Jk	16g/Jk	16dd\Jk	16gg\Jk	.	16bb\Jk	.
4G\	.	4g\	.	12gg\L	.	12bb\L	4g/	4dd\	4gg\	.	4bb\	.
.	.	.	.	12ff\	.	12aa\	.	.	.	.	.	.
.	.	.	.	12gg\J	.	12bb\J	.	.	.	.	.	.
!	!	!LO:LB:g=original	!	!	!	!	!	!	!	!	!	!
=38	=38	=38	=38	=38	=38	=38	=38	=38	=38	=38	=38	=38
!	!	!	!	!	!	!	!LO:TX:a:t=problem:caudy 8 left or center	!	!	!	!	!
8.C/L	.	8.c\L	.	8.ee\L	.	8.ccc\L	8.cc\L	8.ee\L	8.ee\L	.	8.ccc\L	.
!	!	!	!	!	!	!	!LO:TX:a:t=problem:caudy 16 left or center	!	!	!	!	!
16C/Jk	.	16c\Jk	.	16ee\Jk	.	16ccc\Jk	16cc\Jk	16ee\Jk	16ee\Jk	.	16ccc\Jk	.
!	!	!	!	!	!	!LO:LB:g=original	!	!	!	!	!	!
4C/	.	4c\	.	12ee\L	.	12ccc\L	4cc\	4ee\	4ee\	.	4ccc\	.
.	.	.	.	12dd\	.	12bb\	.	.	.	.	.	.
.	.	.	.	12ee\J	.	12ccc\J	.	.	.	.	.	.
!LO:LB:g=original	!	!	!	!	!	!	!	!	!	!	!	!
=39	=39	=39	=39	=39	=39	=39	=39	=39	=39	=39	=39	=39
4D\	.	4d\	.	8dd\L	.	8bb\L	4dd\	4dd\	8dd\L	.	8bb\L	.
.	.	.	.	8cc\	.	8aa\	.	.	8cc\	.	8aa\	.
4D\	.	4d\	.	8b\	.	8gg\	4dd\	4dd\	8b\	.	8gg\	.
.	.	.	.	8a\J	.	8ff#X\J	.	.	8a\J	.	8ff#X\J	.
=40	=40	=40	=40	=40	=40	=40	=40	=40	=40	=40	=40	=40
4G\	.	4g\	.	8b\L	.	8gg\L	4g/	4dd\	8b\L	.	8gg\L	.
.	.	.	.	8dd\	.	8bb\J	.	.	8dd\	.	8dd\	.
4r	.	4r	.	8b\	.	4gg\	4r	4r	8b\	.	8gg\	.
.	.	.	.	8dd\J	.	.	.	.	8dd\J	.	8aa\J	.
=41	=41	=41	=41	=41	=41	=41	=41	=41	=41	=41	=41	=41
8.G\L	.	8.g\L	.	8.gg\L	.	8.bb\L	8.g/L	8.dd\L	8.gg\L	.	8.bb\L	.
16G\Jk	.	16g\Jk	.	16gg\Jk	.	16bb\Jk	16g/Jk	16dd\Jk	16gg\Jk	.	16bb\Jk	.
!	!	!	!	!LO:LB:g=original	!	!	!	!	!	!	!	!
4G\	.	4g\	.	12gg\L	.	12bb\L	4g/	4dd\	4gg\	.	4bb\	.
.	.	.	.	12ff#X\	.	12aa\	.	.	.	.	.	.
.	.	.	.	12gg\J	.	12bb\J	.	.	.	.	.	.
=42	=42	=42	=42	=42	=42	=42	=42	=42	=42	=42	=42	=42
8.C/L	.	8.c/L	.	8.ee\L	.	8.ccc\L	8.cc\L	8.ee\L	8.ee\L	.	8.ccc\L	.
16C/Jk	.	16c/Jk	.	16ee\Jk	.	16ccc\Jk	16cc\Jk	16ee\Jk	16ee\Jk	.	16ccc\Jk	.
4C/	.	4c/	.	12ee\L	.	12ccc\L	4cc\	4ee\	4ee\	.	4ccc\	.
.	.	.	.	12dd\	.	12bb\	.	.	.	.	.	.
.	.	.	.	12ee\J	.	12ccc\J	.	.	.	.	.	.
!	!	!	!	!	!	!	!	!	!LO:LB:g=original	!	!	!
=43	=43	=43	=43	=43	=43	=43	=43	=43	=43	=43	=43	=43
4D\	.	4d\	.	8dd\L	.	8bb\L	4dd\	4dd\	8dd\L	.	8bb\L	.
.	.	.	.	8cc\	.	8aa\	.	.	8cc\	.	8aa\	.
4D\	.	4d\	.	8b\	.	8gg\	4dd\	4dd\	8b\	.	8gg\	.
!	!	!	!	!	!	!LO:TX:a:t=SIC!:s=8ff#	!	!	!	!	!	!
.	.	.	.	8a\J	.	8ff\J	.	.	8a\J	.	8ff#X\J	.
=44	=44	=44	=44	=44	=44	=44	=44	=44	=44	=44	=44	=44
4G\	.	4g\	.	4b/	p	4gg\	4g/	4dd\	2g/	p	2gg\	.
4r	.	4r	.	12g/L	.	12b'\L	4r	4r	.	.	.	.
.	.	.	.	12a/	.	12cc'\	.	.	.	.	.	.
.	.	.	.	12b/J	.	12dd'\J	.	.	.	.	.	.
=45	=45	=45	=45	=45	=45	=45	=45	=45	=45	=45	=45	=45
!LO:TX:a:t=1	!	!	!	!	!	!	!LO:TX:a:t=1	!LO:TX:a:t=1	!	!	!	!
2r	.	2r	.	(12cc\L	.	12ee'\L	2r	2r	2g/	.	2gg\	.
.	.	.	.	12dd\	.	12ff'\	.	.	.	.	.	.
.	.	.	.	12ee\J)	.	12gg'\J	.	.	.	.	.	.
.	.	.	.	(12ee\L	.	12gg'\L	.	.	.	.	.	.
.	.	.	.	12dd\	.	12ff'\	.	.	.	.	.	.
.	.	.	.	12cc\J)	.	12ee'\J	.	.	.	.	.	.
!	!	!	!	!	!	!	!	!LO:LB:g=original	!	!	!	!
=46	=46	=46	=46	=46	=46	=46	=46	=46	=46	=46	=46	=46
*	*	*	*	*	*	*^	*	*	*	*	*	*
4r	.	4r	.	4b/	f	4ryy	4dd\	4r	4r	4g/	.	4gg\	.
*	*	*	*	*^	*	*	*	*	*	*	*	*	*
*	*	*Xtuplet	*	*	*	*	*	*	*	*	*	*	*	*
!	!	!LO:TX:a:t=problem:triole bez oznaczenia	!	!	!	!	!	!	!	!	!	!	!	!
12E\L	.	12e\L	.	4b/	4g\	.	4gg/	4dd\	4g/	4dd\	4b/	.	4gg\	.
12D\	.	12d\	.	.	.	.	.	.	.	.	.	.	.	.
12E\J	.	12e\J	.	.	.	.	.	.	.	.	.	.	.	.
*	*	*	*	*v	*v	*	*	*	*	*	*	*	*	*
!	!	!	!	!	!	!	!	!LO:LB:g=original	!	!	!	!	!
=47	=47	=47	=47	=47	=47	=47	=47	=47	=47	=47	=47	=47	=47
(12C\L	.	12c/L	.	4e/ 4cc	.	4aa/	4cc\	4cc\	4ee\	4cc/	.	4aa\	.
12BB\	.	12B/	.	.	.	.	.	.	.	.	.	.	.
12C\J)	.	12c/J	.	.	.	.	.	.	.	.	.	.	.
(12D\L	.	12d\L	.	4d/ 4b	.	4ff/	4a\	4dd\	4dd\	4a/	.	4ff#X\	.
12C\	.	12c\	.	.	.	.	.	.	.	.	.	.	.
12D\J)	.	12d\J	.	.	.	.	.	.	.	.	.	.	.
*	*	*	*	*	*	*v	*v	*	*	*	*	*	*
!	!	!LO:LB:g=original	!	!	!	!	!	!	!	!	!LO:LB:g=original	!
=48	=48	=48	=48	=48	=48	=48	=48	=48	=48	=48	=48	=48
4GG/	.	4G/	.	4d/ 4b	.	4b/ 4gg	4g/	4dd\	2g/	.	2gg\	.
4r	.	4r	.	12g'/L	p	12b'\L	4r	4r	.	.	.	.
.	.	.	.	12a'/	.	12cc'\	.	.	.	.	.	.
.	.	.	.	12b'/J	.	12dd'\J	.	.	.	.	.	.
!	!	!	!	!	!	!LO:LB:g=original	!	!	!	!	!	!
=49	=49	=49	=49	=49	=49	=49	=49	=49	=49	=49	=49	=49
!LO:TX:a:t=1	!	!	!	!	!	!	!	!LO:TX:a:t=1	!	!	!	!
2r	.	2r	.	12cc'\L	.	12ee'\L	2r	2r	2g/	.	2gg\	.
.	.	.	.	12dd'\	.	12ff'\	.	.	.	.	.	.
.	.	.	.	12ee'\J	.	12gg'\J	.	.	.	.	.	.
.	.	.	.	12ee'\L	.	12gg'\L	.	.	.	.	.	.
.	.	.	.	12dd'\	.	12ff'\	.	.	.	.	.	.
.	.	.	.	12cc'\J	.	12ee'\J	.	.	.	.	.	.
!	!	!	!	!LO:LB:g=original	!	!	!	!	!	!	!	!
=50	=50	=50	=50	=50	=50	=50	=50	=50	=50	=50	=50	=50
*	*	*	*	*	*	*^	*	*	*	*	*	*
4r	.	4r	.	4b/	f	4ryy	4dd\	4r	4r	4g/	.	4gg\	.
*	*	*	*	*^	*	*	*	*	*	*	*	*	*
12E\L	.	12e\L	.	4b/	4g\	.	4gg/	4dd\	4g/	4ee\	4b/	.	4gg\	.
12D\	.	12d\	.	.	.	.	.	.	.	.	.	.	.	.
12E\J	.	12e\J	.	.	.	.	.	.	.	.	.	.	.	.
*	*	*	*	*v	*v	*	*	*	*	*	*	*	*	*
!LO:LB:g=original	!	!	!	!	!	!	!	!	!	!	!	!	!
=51	=51	=51	=51	=51	=51	=51	=51	=51	=51	=51	=51	=51	=51
12C/L	.	12c/L	.	4e/ 4cc	.	4aa/	4cc\	4cc\	4ee\	4cc/	.	4aa\	.
12BB/	.	12B/	.	.	.	.	.	.	.	.	.	.	.
12C/J	.	12c/J	.	.	.	.	.	.	.	.	.	.	.
12D/L	.	12d\L	.	4d/ 4cc	.	4ff/	4a\	4dd\	4dd\	4a/	.	4ff#X\	.
12C/	.	12c\	.	.	.	.	.	.	.	.	.	.	.
12D/J	.	12d\J	.	.	.	.	.	.	.	.	.	.	.
*	*	*	*	*	*	*v	*v	*	*	*	*	*	*
=52	=52	=52	=52	=52	=52	=52	=52	=52	=52	=52	=52	=52
4G\	.	4g\	.	4G/ 4d 4b	.	4d/ 4b 4gg	4g/	4dd\	4b\	.	4gg\	.
4r	.	4r	.	16b\LL	.	16gg\LL	4r	4r	4r	.	4r	.
.	.	.	.	16cc\	.	16aa\	.	.	.	.	.	.
.	.	.	.	16dd\	.	16bb\	.	.	.	.	.	.
.	.	.	.	16cc\JJ	.	16aa\JJ	.	.	.	.	.	.
=53	=53	=53	=53	=53	=53	=53	=53	=53	=53	=53	=53	=53
4G\	.	4g\	.	4d/ 4b	.	4d/ 4b 4gg	4g/	4dd\	4b\	.	4gg\	.
4r	.	4r	.	16b\LL	.	16gg\LL	4r	4r	4r	.	4r	.
.	.	.	.	16cc\	.	16aa\	.	.	.	.	.	.
.	.	.	.	16dd\	.	16bb\	.	.	.	.	.	.
.	.	.	.	16cc\JJ	.	16aa\JJ	.	.	.	.	.	.
=54	=54	=54	=54	=54	=54	=54	=54	=54	=54	=54	=54	=54
4G\	.	4g\	.	4G/ 4d 4b	.	4d/ 4b 4gg	4g/	4dd\	4b\	.	4gg\	.
4G\	.	4g\	.	4G/ 4d 4b	.	4d/ 4b 4gg	4g/	4dd\	4b\	.	4gg\	.
=55	=55	=55	=55	=55	=55	=55	=55	=55	=55	=55	=55	=55
4G\	.	4g\	.	4G/ 4d 4b	.	4d/ 4b 4gg	4g/	4dd\	4b\	.	4gg\	.
4r	.	4r	.	4r	.	4r	4r	4r	4r	.	4r	.
!	!	!	!	!	!	!	!	!	!LO:LB:g=original	!	!	!
=56:|!|:	=56:|!|:	=56:|!|:	=56:|!|:	=56:|!|:	=56:|!|:	=56:|!|:	=56:|!|:	=56:|!|:	=56:|!|:	=56:|!|:	=56:|!|:	=56:|!|:
*>B	*>B	*>B	*>B	*>B	*>B	*>B	*>B	*>B	*>B	*>B	*>B	*>B
!	!	!LO:TX:a:t=16.	!	!	!	!	!LO:N:vis=00	!LO:N:vis=00	!LO:N:vis=00	!	!LO:N:vis=00	!
!LO:N:vis=00	!	!LO:N:vis=00	!	!	!	!	!	!	!	!	!	!
0r	.	0r	.	2r	.	8.gg\L	0r	0r	0r	.	0r	.
.	.	.	.	.	.	16aa\Jk	.	.	.	.	.	.
.	.	.	.	.	.	12bb-X\L	.	.	.	.	.	.
.	.	.	.	.	.	12aa\	.	.	.	.	.	.
.	.	.	.	.	.	12gg\J	.	.	.	.	.	.
=57	=57	=57	=57	=57	=57	=57	=57	=57	=57	=57	=57	=57
.	.	.	.	4r	.	12ff'\L	.	.	.	.	.	.
.	.	.	.	.	.	12ee'\	.	.	.	.	.	.
.	.	.	.	.	.	12dd'\J	.	.	.	.	.	.
.	.	.	.	4g/	p	12cc#X'\L	.	.	.	.	.	.
.	.	.	.	.	.	12b'\	.	.	.	.	.	.
.	.	.	.	.	.	12a'\J	.	.	.	.	.	.
!	!	!	!	!	!	!LO:LB:g=original	!	!	!	!	!	!
=58	=58	=58	=58	=58	=58	=58	=58	=58	=58	=58	=58	=58
.	.	.	.	8.f/L	.	4dd\	.	.	.	.	.	.
.	.	.	.	16f/Jk	.	.	.	.	.	.	.	.
.	.	.	.	12b-X/L	.	4cc#X\	.	.	.	.	.	.
.	.	.	.	12a/	.	.	.	.	.	.	.	.
.	.	.	.	12g/J	.	.	.	.	.	.	.	.
=59	=59	=59	=59	=59	=59	=59	=59	=59	=59	=59	=59	=59
.	.	.	.	12f/L	.	4dd\	.	.	.	.	.	.
.	.	.	.	12e/	.	.	.	.	.	.	.	.
.	.	.	.	12d/J	.	.	.	.	.	.	.	.
!	!	!	!	!LO:LB:g=original	!	!	!	!	!	!	!	!
.	.	.	.	12c#X/L	.	4ee\	.	.	.	.	.	.
.	.	.	.	12B/	.	.	.	.	.	.	.	.
.	.	.	.	12A/J	.	.	.	.	.	.	.	.
=60	=60	=60	=60	=60	=60	=60	=60	=60	=60	=60	=60	=60
!LO:N:vis=00	!	!LO:N:vis=00	!	!	!	!	!LO:N:vis=00	!LO:N:vis=00	!LO:N:vis=00	!	!LO:N:vis=00	!
0r	.	0r	.	4d/	.	8.ff\L	0r	0r	0r	.	0r	.
.	.	.	.	.	.	16gg\Jk	.	.	.	.	.	.
.	.	.	.	4c#X/	.	12bb-X\L	.	.	.	.	.	.
.	.	.	.	.	.	12aa\	.	.	.	.	.	.
.	.	.	.	.	.	12gg\J	.	.	.	.	.	.
=61	=61	=61	=61	=61	=61	=61	=61	=61	=61	=61	=61	=61
.	.	.	.	4d/	.	12ff\L	.	.	.	.	.	.
.	.	.	.	.	.	12ee\	.	.	.	.	.	.
.	.	.	.	.	.	12dd\J	.	.	.	.	.	.
.	.	.	.	4g/	.	12cc#X\L	.	.	.	.	.	.
.	.	.	.	.	.	12b\	.	.	.	.	.	.
.	.	.	.	.	.	12a\J	.	.	.	.	.	.
=62	=62	=62	=62	=62	=62	=62	=62	=62	=62	=62	=62	=62
.	.	.	.	8.f/L	.	4dd\	.	.	.	.	.	.
.	.	.	.	16f/Jk	.	.	.	.	.	.	.	.
.	.	.	.	12b-X/L	.	4cc#X\	.	.	.	.	.	.
.	.	.	.	12a/	.	.	.	.	.	.	.	.
.	.	.	.	12g/J	.	.	.	.	.	.	.	.
=63	=63	=63	=63	=63	=63	=63	=63	=63	=63	=63	=63	=63
.	.	.	.	12f/L	.	4dd\	.	.	.	.	.	.
.	.	.	.	12e/	.	.	.	.	.	.	.	.
.	.	.	.	12d/J	.	.	.	.	.	.	.	.
.	.	.	.	12c#X/L	.	4ee\	.	.	.	.	.	.
.	.	.	.	12B/	.	.	.	.	.	.	.	.
.	.	.	.	12A/J	.	.	.	.	.	.	.	.
=64	=64	=64	=64	=64	=64	=64	=64	=64	=64	=64	=64	=64
!LO:N:vis=00	!	!LO:N:vis=00	!	!	!	!	!LO:N:vis=00	!LO:N:vis=00	!LO:N:vis=00	!	!LO:N:vis=00	!
0r	.	0r	.	4d/	.	8.ff\L	0r	0r	0r	.	0r	.
.	.	.	.	.	.	16ff\Jk	.	.	.	.	.	.
.	.	.	.	4B/	.	12aa\L	.	.	.	.	.	.
.	.	.	.	.	.	12gg\	.	.	.	.	.	.
.	.	.	.	.	.	12ff\J	.	.	.	.	.	.
=65	=65	=65	=65	=65	=65	=65	=65	=65	=65	=65	=65	=65
.	.	.	.	4cn/	.	12ee\L	.	.	.	.	.	.
.	.	.	.	.	.	12dd\	.	.	.	.	.	.
.	.	.	.	.	.	12ccn\J	.	.	.	.	.	.
.	.	.	.	4f/	.	12b\L	.	.	.	.	.	.
.	.	.	.	.	.	12a\	.	.	.	.	.	.
.	.	.	.	.	.	12g\J	.	.	.	.	.	.
=66	=66	=66	=66	=66	=66	=66	=66	=66	=66	=66	=66	=66
.	.	.	.	8.e/L	.	4cc\	.	.	.	.	.	.
.	.	.	.	16e/Jk	.	.	.	.	.	.	.	.
.	.	.	.	12a/L	.	4b\	.	.	.	.	.	.
.	.	.	.	12g/	.	.	.	.	.	.	.	.
.	.	.	.	12f/J	.	.	.	.	.	.	.	.
=67	=67	=67	=67	=67	=67	=67	=67	=67	=67	=67	=67	=67
.	.	.	.	12e/L	.	4cc\	.	.	.	.	.	.
.	.	.	.	12d/	.	.	.	.	.	.	.	.
.	.	.	.	12c/J	.	.	.	.	.	.	.	.
.	.	.	.	12B/L	.	4dd\	.	.	.	.	.	.
.	.	.	.	12A/	.	.	.	.	.	.	.	.
.	.	.	.	12G/J	.	.	.	.	.	.	.	.
=68	=68	=68	=68	=68	=68	=68	=68	=68	=68	=68	=68	=68
!LO:N:vis=00	!	!LO:N:vis=00	!	!	!	!	!LO:N:vis=00	!LO:N:vis=0	!LO:N:vis=00	!	!LO:N:vis=00	!
0r	.	0r	.	4c/	.	8.ee\L	0r	0r	0r	.	0r	.
.	.	.	.	.	.	16ff\Jk	.	.	.	.	.	.
.	.	.	.	4B/	.	12aa\L	.	.	.	.	.	.
.	.	.	.	.	.	12gg\	.	.	.	.	.	.
.	.	.	.	.	.	12ff\J	.	.	.	.	.	.
!	!	!	!	!	!	!LO:LB:g=original	!	!	!	!	!	!
=69	=69	=69	=69	=69	=69	=69	=69	=69	=69	=69	=69	=69
.	.	.	.	4c/	.	12ee\L	.	.	.	.	.	.
.	.	.	.	.	.	12dd\	.	.	.	.	.	.
.	.	.	.	.	.	12cc\J	.	.	.	.	.	.
.	.	.	.	4f/	.	12b\L	.	.	.	.	.	.
.	.	.	.	.	.	12a\	.	.	.	.	.	.
.	.	.	.	.	.	12g\J	.	.	.	.	.	.
!	!	!	!	!LO:LB:g=original	!	!	!	!	!	!	!	!
=70	=70	=70	=70	=70	=70	=70	=70	=70	=70	=70	=70	=70
.	.	.	.	8.e/L	.	4cc\	.	.	.	.	.	.
.	.	.	.	16e/Jk	.	.	.	.	.	.	.	.
.	.	.	.	12a/L	.	4a\	.	.	.	.	.	.
.	.	.	.	12g/	.	.	.	.	.	.	.	.
.	.	.	.	12f/J	.	.	.	.	.	.	.	.
=71	=71	=71	=71	=71	=71	=71	=71	=71	=71	=71	=71	=71
.	.	.	.	12e/L	.	4cc\	.	.	.	.	.	.
.	.	.	.	12d/	.	.	.	.	.	.	.	.
.	.	.	.	12c/J	.	.	.	.	.	.	.	.
.	.	.	.	12B/L	.	4dd\	.	.	.	.	.	.
.	.	.	.	12A/	.	.	.	.	.	.	.	.
.	.	.	.	12G/J	.	.	.	.	.	.	.	.
!	!	!LO:g=original	!	!	!	!	!LO:LB:g=original	!	!	!	!	!
=72	=72	=72	=72	=72	=72	=72	=72	=72	=72	=72	=72	=72
!LO:N:vis=8.	!	!	!	!	!	!LO:TX:t=P:problem=mixed beam	!	!	!	!	!	!
4r	.	8r	.	8.c/L	.	8.cc\L	4r	4r	4r	.	4r	.
.	.	16r	.	.	.	.	.	.	.	.	.	.
!	!	!LO:N:vis=8	!	!	!	!	!	!	!	!	!	!
.	.	16c\KL	.	16c/Jk	.	16c/Jk	.	.	.	.	.	.
!LO:TX:t=P:problem=mixed beam	!	!	!	!	!	!	!	!	!	!	!	!
12C/L	f	8.cc\	.	8.cc\L	f	12cc\L	8.cc\L	8.cc\L	8.cc\L	.	8.cc\L	.
12c\	.	.	.	.	.	12bn\	.	.	.	.	.	.
12c\J	.	.	.	.	.	12a\J	.	.	.	.	.	.
.	.	16cc\Jk	.	16cc\Jk	.	.	16cc\Jk	16cc\Jk	16cc\Jk	.	16cc\Jk	.
=73	=73	=73	=73	=73	=73	=73	=73	=73	=73	=73	=73	=73
12c\L	.	12cc\L	.	12cc\L	.	12a/L	4cc\	4cc\	4cc\	.	4cc\	.
12B-X\	.	12b-X\	.	12b-X\	.	12g/	.	.	.	.	.	.
12A\J	.	12a\J	.	12a\J	.	12f/J	.	.	.	.	.	.
12G\L	.	12g\L	.	12g/L	.	12e/L	4r	4r	4r	.	4r	.
12F\	.	12f\	.	12f/	.	12d/	.	.	.	.	.	.
12E\J	.	12e\J	.	12e/J	.	12c/J	.	.	.	.	.	.
=74	=74	=74	=74	=74	=74	=74	=74	=74	=74	=74	=74	=74
8.F\L	.	8.f\L	.	8.f/L	.	8.d/L	4r	4r	4r	.	4r	.
16D\Jk	.	16d\K	.	16d/Jk	.	16d/Jk	.	.	.	.	.	.
!LO:LB:g=original	!	!	!	!	!	!	!	!	!	!	!	!
8.d\L	.	8.dd\	.	8.dd\L	.	12dd\L	8.dd\L	8.dd\L	8.dd\L	.	8.dd\L	.
.	.	.	.	.	.	12cc\	.	.	.	.	.	.
.	.	.	.	.	.	12bn\J	.	.	.	.	.	.
16d\Jk	.	16dd\Jk	.	16dd\Jk	.	.	16dd\Jk	16dd\Jk	16dd\Jk	.	16dd\Jk	.
!	!	!	!	!	!	!	!	!	!	!	!LO:LB:g=original	!
=75	=75	=75	=75	=75	=75	=75	=75	=75	=75	=75	=75	=75
12d\L	.	12dd\L	.	12dd\L	.	12b\L	4dd\	4dd\	4dd\	.	4dd\	.
12c\	.	12cc\	.	12cc\	.	12a\	.	.	.	.	.	.
12Bn\J	.	12bn\J	.	12b\J	.	12g\J	.	.	.	.	.	.
12A\L	.	12a\L	.	12a/L	.	12f#X/L	4r	4r	4r	.	4r	.
12G\	.	12g\	.	12g/	.	12e/	.	.	.	.	.	.
!	!	!LO:TX:a:t=SIC:s=8f#	!	!	!	!	!	!	!	!	!	!
12F#X\J	.	12f\J	.	12f#X/J	.	12d/J	.	.	.	.	.	.
=76	=76	=76	=76	=76	=76	=76	=76	=76	=76	=76	=76	=76
!LO:TX:t=P:problem=mixed beam	!	!LO:TX:t=P:problem=mixed beam	!	!	!	!	!	!	!	!	!	!
8.G\L	.	8.g\L	.	8.g/L	.	8.g/L	4r	4r	4r	.	4r	.
16GG/K	.	16G/K	.	16G/Jk	.	16G/Jk	.	.	.	.	.	.
8.G\	.	8.g\	.	8.g/L	.	12g/L	8.g/L	8.g/L	8.g/L	.	8.g/L	.
.	.	.	.	.	.	12f/	.	.	.	.	.	.
.	.	.	.	.	.	12e/J	.	.	.	.	.	.
16G\Jk	.	16g\Jk	.	16g/Jk	.	.	16g/Jk	16g/Jk	16g/Jk	.	16g/Jk	.
=77	=77	=77	=77	=77	=77	=77	=77	=77	=77	=77	=77	=77
12G\L	.	12g\L	.	12g/L	.	12e/L	4g/	4g/	4g/	.	4g/	.
12Fn\	.	12fn\	.	12f/	.	12d/	.	.	.	.	.	.
12E\J	.	12e\J	.	12e/J	.	12c/J	.	.	.	.	.	.
12D/L	.	12d\L	.	12d/L	.	12B/L	4r	4r	4r	.	4r	.
12C/	.	12c\	.	12c/	.	12A/	.	.	.	.	.	.
12BB/J	.	12B\J	.	12B/J	.	12G/J	.	.	.	.	.	.
!	!	!LO:g=original	!	!	!	!LO:LB:g=original	!	!	!	!	!	!
=78	=78	=78	=78	=78	=78	=78	=78	=78	=78	=78	=78	=78
8.C/L	.	8.c/L	.	8.c/L	.	8.c/L	4c/	4cc\	4cc\	.	4cc\	.
16C/Jk	.	16c/Jk	.	16c/Jk	.	16c/Jk	.	.	.	.	.	.
12AA/L	.	12A/L	.	12A/L	.	12A/L	4r	4r	4r	.	4r	.
12BB/	.	12B/	.	12B/	.	12B/	.	.	.	.	.	.
12C/J	.	12c/J	.	12c/J	.	12c/J	.	.	.	.	.	.
!	!	!	!	!LO:LB:g=original	!	!	!	!	!	!	!	!
=79	=79	=79	=79	=79	=79	=79	=79	=79	=79	=79	=79	=79
!	!	!	!	!	!	!	!LO:N:vis=00	!LO:N:vis=00	!LO:N:vis=0	!	!LO:N:vis=00	!
8.D/L	.	8.d/L	.	8.d/L	.	8.d/L	0r	0r	0r	.	0r	.
16D/Jk	.	16d/Jk	.	16d/Jk	.	16d/Jk	.	.	.	.	.	.
8.BB/L	.	8.B/L	.	8.B/L	.	8B/L	.	.	.	.	.	.
.	.	.	.	.	.	8G/J	.	.	.	.	.	.
16GG/Jk	.	16G/Jk	.	16G/Jk	.	.	.	.	.	.	.	.
=80	=80	=80	=80	=80	=80	=80	=80	=80	=80	=80	=80	=80
8.E\L	.	8.e\L	.	8.e/L	.	8.e/L	.	.	.	.	.	.
16E\Jk	.	16e\Jk	.	16e/Jk	.	16e/Jk	.	.	.	.	.	.
12C/L	.	12c\L	.	12c/L	.	12c/L	.	.	.	.	.	.
12D/	.	12d\	.	12d/	.	12d/	.	.	.	.	.	.
12E/J	.	12e\J	.	12e/J	.	12e/J	.	.	.	.	.	.
!LO:LB:g=original	!	!	!	!	!	!	!	!	!	!	!	!
=81	=81	=81	=81	=81	=81	=81	=81	=81	=81	=81	=81	=81
8.F\L	.	8.f\L	.	8.f/L	.	8.f/L	.	.	.	.	.	.
16F\K	.	16f\Jk	.	16f/K	.	16f/Jk	.	.	.	.	.	.
8.D\	.	8.d\L	.	8.d/	.	8d/L	.	.	.	.	.	.
.	.	.	.	.	.	8B/J	.	.	.	.	.	.
16BB\Jk	.	16B\Jk	.	16B/Jk	.	.	.	.	.	.	.	.
=82	=82	=82	=82	=82	=82	=82	=82	=82	=82	=82	=82	=82
8.G\L	.	8.g\L	.	8.g/L	.	8g/L	.	.	.	.	.	.
.	.	.	.	.	.	8g/J	.	.	.	.	.	.
16G\Jk	.	16g\Jk	.	16g/Jk	.	.	.	.	.	.	.	.
12E\L	.	12e\L	.	12e/L	.	12e/L	.	.	.	.	.	.
12F\	.	12f\	.	12f/	.	12f/	.	.	.	.	.	.
12G\J	.	12g\J	.	12g/J	.	12g/J	.	.	.	.	.	.
=83	=83	=83	=83	=83	=83	=83	=83	=83	=83	=83	=83	=83
!	!	!	!	!LO:TX:t=P:problem=mixed beam	!	!LO:TX:t=P:problem=mixed beam	!LO:N:vis=00	!LO:N:vis=00	!LO:N:vis=0	!	!LO:N:vis=0	!
8.A\L	.	8.a\L	.	8.a/L	.	8.a/L	0r	0r	1r	.	1r	.
16F\Jk	.	16f\Jk	.	16f/K	.	16f/K	.	.	.	.	.	.
8.D\L	.	8.d\L	.	8.d/	.	8.d/	.	.	.	.	.	.
16d\Jk	.	16dd\Jk	.	16dd\Jk	.	16dd\Jk	.	.	.	.	.	.
=84	=84	=84	=84	=84	=84	=84	=84	=84	=84	=84	=84	=84
.	.	.	.	8qqcc/	.	8qqcc/	.	.	.	.	.	.
4B\	.	4b\	.	4b\	.	4b\	.	.	.	.	.	.
8A\L	.	8a\L	.	8a\L	.	8a\L	.	.	.	.	.	.
8B\J	.	8b\J	.	8b\J	.	8b\J	.	.	.	.	.	.
!	!	!LO:g=original	!	!	!	!	!	!	!	!	!	!
=85	=85	=85	=85	=85	=85	=85	=85	=85	=85	=85	=85	=85
!	!	!	!	!	!	!LO:TX:t=P:problem=mixed beam	!	!	!	!	!	!
8c\L	.	8cc\L	.	8cc/L	.	8cc\L	.	.	2r	.	2r	.
8G\	.	8g\	.	8g/	.	8g/	.	.	.	.	.	.
8E\	.	8e\	.	8e/	.	8e/	.	.	.	.	.	.
8C\J	.	8c\J	.	8c/J	.	8c/J	.	.	.	.	.	.
=86	=86	=86	=86	=86	=86	=86	=86	=86	=86	=86	=86	=86
4E\	.	4G/	p	8.c/L	p	8.c/L	.	.	4g/	.	2cc\	.
.	.	.	.	16c/Jk	.	16c/Jk	.	.	.	.	.	.
4F\	.	4A/	.	12A/L	.	12A/L	.	.	4a/	.	.	.
.	.	.	.	12B/	.	12B/	.	.	.	.	.	.
.	.	.	.	12c/J	.	12c/J	.	.	.	.	.	.
!	!	!	!	!	!	!	!	!	!LO:LB:g=original	!	!	!
=87	=87	=87	=87	=87	=87	=87	=87	=87	=87	=87	=87	=87
!	!	!	!	!	!	!	!LO:N:vis=00	!LO:N:vis=00	!	!	!	!
4F#X\	.	4A/	.	8.d/L	.	8.d/L	0r	0r	4a/	.	2dd\	.
.	.	.	.	16d/Jk	.	16d/Jk	.	.	.	.	.	.
!	!	!	!	!	!	!LO:LB:g=original	!	!	!	!	!	!
4G\	.	[4B/	.	8.B/L	.	8B/L	.	.	4b/	.	.	.
.	.	.	.	.	.	8G/J	.	.	.	.	.	.
.	.	.	.	16G/Jk	.	.	.	.	.	.	.	.
=88	=88	=88	=88	=88	=88	=88	=88	=88	=88	=88	=88	=88
4G#X\	.	4B/]	.	8.e/L	.	8.e/L	.	.	4b\	.	2ee\	.
.	.	.	.	16e/Jk	.	16e/Jk	.	.	.	.	.	.
4A\	.	4c/	.	12c/L	.	12c/L	.	.	4cc\	.	.	.
.	.	.	.	12d/	.	12d/	.	.	.	.	.	.
.	.	.	.	12e/J	.	12e/J	.	.	.	.	.	.
!	!	!	!	!LO:LB:g=original	!	!	!	!	!	!	!	!
=89	=89	=89	=89	=89	=89	=89	=89	=89	=89	=89	=89	=89
4A\	.	4c\	.	8.f/L	.	8.f/L	.	.	4cc\	.	2ff\	.
.	.	.	.	16f/Jk	.	16f/Jk	.	.	.	.	.	.
4B\	.	[4d\	.	8.d/L	.	8.d/L	.	.	4dd\	.	.	.
.	.	.	.	16B/Jk	.	16B/Jk	.	.	.	.	.	.
=90	=90	=90	=90	=90	=90	=90	=90	=90	=90	=90	=90	=90
4B\	.	4d\]	.	8.g/L	.	8.g/L	.	.	4dd\	.	2gg\	.
.	.	.	.	16g/Jk	.	16g/Jk	.	.	.	.	.	.
4c\	.	4e\	.	12e/L	.	12e/L	.	.	4ee\	.	.	.
.	.	.	.	12f/	.	12f/	.	.	.	.	.	.
.	.	.	.	12g/J	.	12g/J	.	.	.	.	.	.
!LO:LB:g=original	!	!	!	!	!	!	!	!	!	!	!	!
=91	=91	=91	=91	=91	=91	=91	=91	=91	=91	=91	=91	=91
!	!	!	!	!	!	!	!LO:N:vis=0	!LO:N:vis=0	!	!	!	!
2F\	.	4c\	.	8.a/L	.	8.a/L	1r	1r	4cc\	.	2aa\	.
.	.	.	.	16f/Jk	.	16f/Jk	.	.	.	.	.	.
!	!	!	!	!LO:TX:t=P:problem=mixed beam	!	!LO:TX:t=P:problem=mixed beam	!	!	!	!	!	!
.	.	4f\	.	8.d/L	.	8.d/L	.	.	4r	.	.	.
.	.	.	.	16dd\Jk	.	16dd\Jk	.	.	.	.	.	.
=92	=92	=92	=92	=92	=92	=92	=92	=92	=92	=92	=92	=92
.	.	.	.	8qqcc/	.	8qqcc/	.	.	.	.	.	.
!	!	!	!	!	!	!	!	!	!LO:N:vis=0	!	!LO:N:vis=0	!
2G\	.	4d\	.	4b\	.	4b\	.	.	1r	.	1r	.
.	.	8c\L	.	8a\L	.	8a/L	.	.	.	.	.	.
.	.	8d\J	.	8b\J	.	8b/J	.	.	.	.	.	.
=93	=93	=93	=93	=93	=93	=93	=93	=93	=93	=93	=93	=93
!LO:TX:a:t=problem:brakujący takt (por. t.14-16)	!	!	!	!	!	!	!	!	!	!	!	!
2r	.	4e\	.	4cc\	.	4cc\	2r	2r	.	.	.	.
.	.	4E/	.	4c/	.	4c/	.	.	.	.	.	.
=94	=94	=94	=94	=94	=94	=94	=94	=94	=94	=94	=94	=94
*	*	*	*	*^	*	*^	*	*	*	*	*	*
!	!	!	!LO:DY:t=ffr	!LO:TX:a:t=problem:4 umieszczona pod drugą 16 w grupie	!	!	!LO:TX:a:t=problem:4 umieszczona między drugą a trzecią 16 w grupie	!	!	!	!	!	!	!
8c\L	f	8cc\L	ff	16ee/LL	4g\	.	4gg/	16ee\LL	4r	4r	8ee\L	.	2gg\	.
.	.	.	.	16ee/	.	.	.	16ee\	.	.	.	.	.	.
8B\	.	8b\	.	16dd/	.	.	.	16dd\	.	.	8cc\	.	.	.
.	.	.	.	16dd/JJ	.	.	.	16dd\JJ	.	.	.	.	.	.
!	!	!	!	!	!	!	!LO:TX:a:t=problem:4 umieszczona między drugą a trzecią 16 w grupie	!	!	!	!	!	!	!
8c\	.	8cc\	.	16ee/LL	4g\	.	4gg/	16ee\LL	8g/L	8gg\L	8ee\	.	.	.
.	.	.	.	16ee/	.	.	.	16ee\	.	.	.	.	.	.
8B\J	.	8b\J	.	16dd/	.	.	.	16dd\	8g/J	8gg\J	8dd\J	.	.	.
.	.	.	.	16dd/JJ	.	.	.	16dd\JJ	.	.	.	.	.	.
*	*	*	*	*v	*v	*	*	*	*	*	*	*	*	*
=95	=95	=95	=95	=95	=95	=95	=95	=95	=95	=95	=95	=95	=95
!	!	!	!	!	!	!LO:TX:a:t=problem:4 umieszczona między drugą a trzecią 16 w grupie	!	!	!	!	!	!	!
8c\L	.	8cc\L	.	16cc\LL	.	4gg/	16ee\LL	2g/	2gg\	8cc\L	.	2gg\	.
.	.	.	.	16cc\	.	.	16ee\	.	.	.	.	.	.
8G\J	.	8g\J	.	16b\	.	.	16dd\	.	.	8b\J	.	.	.
.	.	.	.	16b\JJ	.	.	16dd\JJ	.	.	.	.	.	.
4G\	.	4g\	.	8b\	.	4ryy	8dd\	.	.	4cc\	.	.	.
.	.	.	.	8r	.	.	8rff	.	.	.	.	.	.
!	!	!	!	!	!	!	!	!LO:LB:g=original	!LO:LB:g=original	!	!	!LO:LB:g=original	!
=96	=96	=96	=96	=96	=96	=96	=96	=96	=96	=96	=96	=96	=96
*	*	*	*	*^	*	*	*	*	*	*	*	*	*
*	*	*	*	*Xtremolo	*tremolo	*	*	*	*	*	*	*	*	*
!	!	!	!	!LO:TX:a:t=problem:4 umieszczona pod drugą 16 w grupie	!	!	!LO:TX:a:t=problem:4 umieszczona między drugą a trzecią 16 w grupie	!	!	!	!	!	!	!
8A\L	.	8a\L	.	16cc/LL	16e\L	.	4ee/	16cc\LL	4r	4r	8cc\L	.	2ee\	.
.	.	.	.	16cc/	16e\	.	.	16cc\	.	.	.	.	.	.
8G#X\	.	8g#X\	.	16b/	16e\	.	.	16b\	.	.	8b\	.	.	.
.	.	.	.	16b/JJ	16e\J	.	.	16b\JJ	.	.	.	.	.	.
!	!	!	!	!LO:TX:a:t=problem:4 umieszczona między pierwszą a drugą 16 w grupie	!	!	!LO:LB:g=original	!	!	!	!	!	!	!
!	!	!	!	!	!	!	!LO:TX:a:t=problem:4 umieszczona między drugą a trzecią 16 w grupie	!	!	!	!	!	!	!
8A\	.	8a\	.	16cc/LL	16e\L	.	4ee/	16cc\LL	8e/L	8ee\L	8cc\	.	.	.
.	.	.	.	16cc/	16e\	.	.	16cc\	.	.	.	.	.	.
8G#\J	.	8g#\J	.	16b/	16e\	.	.	16b\	8e/J	8ee\J	8b\J	.	.	.
.	.	.	.	16b/JJ	16e\J	.	.	16b\JJ	.	.	.	.	.	.
*	*	*	*	*v	*v	*	*	*	*	*	*	*	*	*
!	!	!LO:g=original	!	!	!	!	!	!	!	!	!	!	!
=97	=97	=97	=97	=97	=97	=97	=97	=97	=97	=97	=97	=97	=97
*	*	*	*	*Xtremolo	*	*	*	*	*	*	*	*	*
!	!	!	!	!	!	!LO:TX:a:t=problem:4 umieszczona między drugą a trzecią 16 w grupie	!	!	!	!	!	!	!
8A\L	.	8a\L	.	16e/LL 16a	.	4ee/	16cc\LL	2e/	2ee\	8a/L	.	2ee\	.
.	.	.	.	16e/ 16a	.	.	16cc\	.	.	.	.	.	.
8E\J	.	8e\J	.	16g#X/	.	.	16b\	.	.	8g#X/J	.	.	.
.	.	.	.	16g#/JJ	.	.	16b\JJ	.	.	.	.	.	.
4E\	.	4e\	.	8g#/	.	4ryy	8b\	.	.	4g#/	.	.	.
.	.	.	.	8r	.	.	8rff	.	.	.	.	.	.
=98	=98	=98	=98	=98	=98	=98	=98	=98	=98	=98	=98	=98	=98
!	!	!	!	!	!	!LO:TX:a:t=problem:4 umieszczona między drugą a trzecią 16 w grupie	!	!	!	!	!	!	!
8F\L	.	8f\L	.	16a/LL	.	4cc/	16a\LL	4r	4r	8a/L	.	2cc\	.
.	.	.	.	16c/ 16a	.	.	16a\	.	.	.	.	.	.
8E\	.	8e\	.	16g/	.	.	16g\	.	.	8g#X/	.	.	.
.	.	.	.	16g/JJ	.	.	16g\JJ	.	.	.	.	.	.
!	!	!	!	!LO:LB:g=original	!	!LO:TX:a:t=problem:4 umieszczona między drugą a trzecią 16 w grupie	!	!	!	!	!	!	!
8F\	.	8f\	.	16a/LL	.	4cc/	16a\LL	8.c/L	8cc\L	8a/	.	.	.
.	.	.	.	16c/ 16a	.	.	16a\	.	.	.	.	.	.
8E\J	.	8e\J	.	16g/	.	.	16g\	.	8cc\J	8g#/J	.	.	.
.	.	.	.	16g/JJ	.	.	16g\JJ	16c/Jk	.	.	.	.	.
=99	=99	=99	=99	=99	=99	=99	=99	=99	=99	=99	=99	=99	=99
!	!	!	!	!	!	!LO:TX:a:t=problem:4 umieszczona między drugą a trzecią 16 w grupie	!	!	!	!	!	!	!
8F\L	.	8f\L	.	16f/LL	.	4cc/	16a\LL	2c/	2cc\	8f/L	.	2cc\	.
.	.	.	.	16c/ 16f	.	.	16a\	.	.	.	.	.	.
8C\J	.	8c\J	.	16e/	.	.	16g\	.	.	8e/J	.	.	.
.	.	.	.	16e/JJ	.	.	16g\JJ	.	.	.	.	.	.
!	!	!	!	!	!	!	!	!	!	!LO:LB:g=original	!	!	!
4C\	.	4c\	.	8e/	.	4ryy	8g\	.	.	4e/	.	.	.
.	.	.	.	8r	.	.	8rc	.	.	.	.	.	.
*	*	*	*	*	*	*v	*v	*	*	*	*	*	*
=100	=100	=100	=100	=100	=100	=100	=100	=100	=100	=100	=100	=100
4G\	.	4g\	.	4G/ 4d 4b	.	12ff\L	4g/	4dd\	4dd\	.	4ff\	.
.	.	.	.	.	.	12ddd\	.	.	.	.	.	.
.	.	.	.	.	.	12ff\J	.	.	.	.	.	.
4C/	.	4g\	.	4G/ 4d 4cc	.	12ee\L	4cc/	4ee\	4cc\	.	4ee\	.
.	.	.	.	.	.	12ccc\	.	.	.	.	.	.
.	.	.	.	.	.	12ee\J	.	.	.	.	.	.
=101	=101	=101	=101	=101	=101	=101	=101	=101	=101	=101	=101	=101
4G\	.	4g\	.	4cc\	.	4ee\	4cc/	4ee\	4cc\	.	4ee\	.
4GG/	.	4r	.	8b\	.	8dd\	8g/	8dd\	8b\	.	8dd\	.
.	.	.	.	8r	.	8r	8r	8r	8r	.	8r	.
!LO:LB:g=original	!	!	!	!	!	!	!	!	!	!	!	!
=102	=102	=102	=102	=102	=102	=102	=102	=102	=102	=102	=102	=102
!LO:N:vis=00	!	!LO:N:vis=00	!	!LO:N:vis=0	!	!	!LO:N:vis=00	!LO:N:vis=00	!LO:N:vis=00	!	!LO:N:vis=00	!
0r	.	0r	.	1r	.	8.c/L	0r	0r	0r	.	0r	.
.	.	.	.	.	.	16c/Jk	.	.	.	.	.	.
.	.	.	.	.	.	12A/L	.	.	.	.	.	.
.	.	.	.	.	.	12B/	.	.	.	.	.	.
.	.	.	.	.	.	12c/J	.	.	.	.	.	.
=103	=103	=103	=103	=103	=103	=103	=103	=103	=103	=103	=103	=103
.	.	.	.	.	.	8.d/L	.	.	.	.	.	.
.	.	.	.	.	.	16d/Jk	.	.	.	.	.	.
.	.	.	.	.	.	8B/L	.	.	.	.	.	.
.	.	.	.	.	.	8G/J	.	.	.	.	.	.
=104	=104	=104	=104	=104	=104	=104	=104	=104	=104	=104	=104	=104
.	.	.	.	8.c/L	p	8.e/L	.	.	.	.	.	.
.	.	.	.	16c/Jk	.	16e/Jk	.	.	.	.	.	.
!	!	!	!	!	!	!LO:LB:g=original	!	!	!	!	!	!
.	.	.	.	12c/L	.	12e/L	.	.	.	.	.	.
.	.	.	.	12B/	.	12d/	.	.	.	.	.	.
.	.	.	.	12c/J	.	12e/J	.	.	.	.	.	.
=105	=105	=105	=105	=105	=105	=105	=105	=105	=105	=105	=105	=105
.	.	.	.	8.d/L	.	8.f/L	.	.	.	.	.	.
.	.	.	.	16d/Jk	.	16f/Jk	.	.	.	.	.	.
.	.	.	.	8.B/L	.	8.d/L	.	.	.	.	.	.
.	.	.	.	16G/Jk	.	16B/Jk	.	.	.	.	.	.
=106	=106	=106	=106	=106	=106	=106	=106	=106	=106	=106	=106	=106
*	*	*2\right	*	*	*	*	*	*	*	*	*	*
!	!	!	!	!	!	!LO:TX:t=P:problem=mixed beam	!	!	!	!	!	!
8.C/L	f	2c\	f	8.e/L	f	16g/LL	2e/	2ee\	2e/	.	2g/	.
.	.	.	.	.	.	16gg\	.	.	.	.	.	.
.	.	.	.	.	.	16g/	.	.	.	.	.	.
16C/Jk	.	.	.	16e/Jk	.	16gg\JJ	.	.	.	.	.	.
!	!	!	!	!	!	!LO:TX:t=P:problem=mixed beam	!	!	!	!	!	!
12C/L	.	.	.	12e/L	.	16g/LL	.	.	.	.	.	.
.	.	.	.	.	.	16gg\	.	.	.	.	.	.
12BB/	.	.	.	12d/	.	.	.	.	.	.	.	.
.	.	.	.	.	.	16g/	.	.	.	.	.	.
12C/J	.	.	.	12e/	.	.	.	.	.	.	.	.
.	.	.	.	.	.	16gg\JJ	.	.	.	.	.	.
=107	=107	=107	=107	=107	=107	=107	=107	=107	=107	=107	=107	=107
*	*	*	*	*	*	*tremolo	*	*	*	*	*	*
8.D/L	.	2d\	.	8.f/L	.	16g/L 16gg	2g/	2dd\	2f/	.	2g/	.
.	.	.	.	.	.	16g/ 16gg	.	.	.	.	.	.
.	.	.	.	.	.	16g/ 16gg	.	.	.	.	.	.
16D/Jk	.	.	.	16f/Jk	.	16g/ 16gg	.	.	.	.	.	.
8.BB/L	.	.	.	8.d/L	.	16g/ 16gg	.	.	.	.	.	.
.	.	.	.	.	.	16g/ 16gg	.	.	.	.	.	.
.	.	.	.	.	.	16g/ 16gg	.	.	.	.	.	.
16GG/Jk	.	.	.	16G/Jk	.	16g/J 16gg	.	.	.	.	.	.
=108	=108	=108	=108	=108	=108	=108	=108	=108	=108	=108	=108	=108
!	!	!	!	!LO:TX:a:t=problem:repetycja tt.104-108	!	!	!	!	!	!	!	!
8.E\L	.	2e\	.	8.c/Lyy	p	16g/L 16gg	2ee\	2ee\	2e/	.	2g/	.
.	.	.	.	.	.	16g/ 16gg	.	.	.	.	.	.
.	.	.	.	.	.	16g/ 16gg	.	.	.	.	.	.
16E\Jk	.	.	.	16c/Jkyy	.	16g/ 16gg	.	.	.	.	.	.
12E\L	.	.	.	12c/Lyy	.	16g/ 16gg	.	.	.	.	.	.
.	.	.	.	.	.	16g/ 16gg	.	.	.	.	.	.
12D\	.	.	.	12B/yy	.	.	.	.	.	.	.	.
.	.	.	.	.	.	16g/ 16gg	.	.	.	.	.	.
12E\J	.	.	.	12c/Jyy	.	.	.	.	.	.	.	.
.	.	.	.	.	.	16g/J 16gg	.	.	.	.	.	.
=109	=109	=109	=109	=109	=109	=109	=109	=109	=109	=109	=109	=109
8.F\L	.	4f\	.	8.d/Lyy	.	16g/L 16gg	2g/	2dd\	2d/	.	2g/	.
.	.	.	.	.	.	16g/ 16gg	.	.	.	.	.	.
.	.	.	.	.	.	16g/ 16gg	.	.	.	.	.	.
16F\Jk	.	.	.	16d/Jkyy	.	16g/ 16gg	.	.	.	.	.	.
!	!	!	!	!LO:LB:g=original	!	!	!	!	!	!	!	!
8.D/L	.	4d\	.	8.B/Lyy	.	16g/ 16gg	.	.	.	.	.	.
.	.	.	.	.	.	16g/ 16gg	.	.	.	.	.	.
.	.	.	.	.	.	16g/ 16gg	.	.	.	.	.	.
16BB/Jk	.	.	.	16G/Jkyy	.	16g/J 16gg	.	.	.	.	.	.
=110	=110	=110	=110	=110	=110	=110	=110	=110	=110	=110	=110	=110
8.C/L	.	2c\	.	8.e/Lyy	f	16g/L 16gg	2e/	2cc\	2e/	.	2g/	.
.	.	.	.	.	.	16g/ 16gg	.	.	.	.	.	.
.	.	.	.	.	.	16g/ 16gg	.	.	.	.	.	.
16C/Jk	.	.	.	16e/Jkyy	.	16g/ 16gg	.	.	.	.	.	.
12C/L	.	.	.	12e/Lyy	.	16g/ 16gg	.	.	.	.	.	.
.	.	.	.	.	.	16g/ 16gg	.	.	.	.	.	.
12BB/	.	.	.	12d/yy	.	.	.	.	.	.	.	.
.	.	.	.	.	.	16g/ 16gg	.	.	.	.	.	.
12C/J	.	.	.	12e/Jyy	.	.	.	.	.	.	.	.
.	.	.	.	.	.	16g/J 16gg	.	.	.	.	.	.
!	!	!	!	!	!	!	!	!LO:LB:g=original	!	!	!	!
=111	=111	=111	=111	=111	=111	=111	=111	=111	=111	=111	=111	=111
!	!	!	!	!	!	!LO:TX:a:t=problem:repetycja tt.108-111	!	!	!	!	!	!
8.D/L	.	2d\	.	8.f/Lyy	.	16g/Lyy 16ggyy	2g/	2dd\	2f/	.	2g/	.
.	.	.	.	.	.	16g/yy 16ggyy	.	.	.	.	.	.
.	.	.	.	.	.	16g/yy 16ggyy	.	.	.	.	.	.
16D/Jk	.	.	.	16f/Jkyy	.	16g/yy 16ggyy	.	.	.	.	.	.
8.BB/L	.	.	.	8.d/Lyy	.	16g/yy 16ggyy	.	.	.	.	.	.
.	.	.	.	.	.	16g/yy 16ggyy	.	.	.	.	.	.
.	.	.	.	.	.	16g/yy 16ggyy	.	.	.	.	.	.
16GG/Jk	.	.	.	16G/Jkyy	.	16g/Jyy 16ggyy	.	.	.	.	.	.
!LO:LB:g=original	!	!	!	!	!	!	!LO:LB:g=original	!	!	!	!	!
=112	=112	=112	=112	=112	=112	=112	=112	=112	=112	=112	=112	=112
8.E\L	.	2e\	.	8.c/L	.	16g/Lyy 16ggyy	2cc\	2ee\	2e/	.	2g/	.
.	.	.	.	.	.	16g/yy 16ggyy	.	.	.	.	.	.
.	.	.	.	.	.	16g/yy 16ggyy	.	.	.	.	.	.
16E\Jk	.	.	.	16c/Jk	.	16g/yy 16ggyy	.	.	.	.	.	.
12E\L	.	.	.	12c/L	.	16g/yy 16ggyy	.	.	.	.	.	.
.	.	.	.	.	.	16g/yy 16ggyy	.	.	.	.	.	.
12D\	.	.	.	12B/	.	.	.	.	.	.	.	.
.	.	.	.	.	.	16g/yy 16ggyy	.	.	.	.	.	.
12E\J	.	.	.	12c/J	.	.	.	.	.	.	.	.
.	.	.	.	.	.	16g/Jyy 16ggyy	.	.	.	.	.	.
=113	=113	=113	=113	=113	=113	=113	=113	=113	=113	=113	=113	=113
8.F\L	.	4f\	.	8.d/L	.	16g/Lyy 16ggyy	2g/	2dd\	2d/	.	2g/	.
.	.	.	.	.	.	16g/yy 16ggyy	.	.	.	.	.	.
.	.	.	.	.	.	16g/yy 16ggyy	.	.	.	.	.	.
16F\Jk	.	.	.	16d/Jk	.	16g/yy 16ggyy	.	.	.	.	.	.
!	!	!	!	!LO:LB:g=original	!	!	!	!	!	!	!	!
8.D/L	.	4d\	.	8.B/L	.	16g/yy 16ggyy	.	.	.	.	.	.
.	.	.	.	.	.	16g/yy 16ggyy	.	.	.	.	.	.
.	.	.	.	.	.	16g/yy 16ggyy	.	.	.	.	.	.
16BB/Jk	.	.	.	16G/Jk	.	16g/Jyy 16ggyy	.	.	.	.	.	.
*	*	*	*	*	*	*Xtremolo	*	*	*	*	*	*
!	!	!	!	!	!	!	!	!	!	!	!LO:LB:g=original	!
*	*	*	*	*	*	*Xtremolo	*	*	*	*	*	*
=114	=114	=114	=114	=114	=114	=114	=114	=114	=114	=114	=114	=114
8C/L	.	8.c/L	.	8.g/L	.	8.ee\L	8.c/L	8.cc\L	8.g/L	.	8.ee\L	.
8C/J	.	.	.	.	.	.	.	.	.	.	.	.
.	.	16c/Jk	.	16g/Jk	.	16ee\Jk	16c/Jk	16cc\Jk	16g/Jk	.	16ee\Jk	.
!LO:TX:a:t=tu	!	!	!	!	!	!	!	!	!	!	!	!
4C/	.	4c/	.	12g/L	.	12ee\L	4c/	4cc\	4g/	.	4ee\	.
.	.	.	.	12f/	.	12dd\	.	.	.	.	.	.
.	.	.	.	12g/J	.	12ee\J	.	.	.	.	.	.
!	!	!LO:g=original	!	!	!	!	!	!	!	!	!	!
=115	=115	=115	=115	=115	=115	=115	=115	=115	=115	=115	=115	=115
8F\L	.	8.f\L	.	8.a/L	.	8ff\L	8.c/L	8.cc\L	8.a/L	.	8.ff\L	.
8F\J	.	.	.	.	.	8ff\J	.	.	.	.	.	.
.	.	16f\Jk	.	16a/Jk	.	.	16c/Jk	16cc\Jk	16a/Jk	.	16ff\Jk	.
4F\	.	4f\	.	12a/L	.	12ff\L	4c/	4cc\	4a/	.	4ff\	.
.	.	.	.	12g/	.	12ee\	.	.	.	.	.	.
.	.	.	.	12a/J	.	12ff\J	.	.	.	.	.	.
!	!	!	!	!	!	!	!	!	!LO:LB:g=original	!	!	!
=116	=116	=116	=116	=116	=116	=116	=116	=116	=116	=116	=116	=116
4G\	.	4g\	.	8g/L	.	8ee\L	4r	4r	8g/L	.	8ee\L	.
.	.	.	.	8f/	.	8dd\	.	.	8f/	.	8dd\	.
4GG/	.	4G/	.	8e/	.	8cc\	4g/	4g/	8e/	.	8cc\	.
.	.	.	.	8d/J	.	8b\J	.	.	8d/J	.	8b\J	.
=117	=117	=117	=117	=117	=117	=117	=117	=117	=117	=117	=117	=117
4C/	.	4c/	.	8e/L	.	8cc\L	4c/	4g/	8e/L	.	8cc\L	.
.	.	.	.	8g/	.	8ee\J	.	.	8g/	.	8g\	.
4r	.	4r	.	8e/	.	4cc\	4r	4r	8e/	.	8cc\	.
.	.	.	.	8g/J	.	.	.	.	8g/J	.	8dd\J	.
=118	=118	=118	=118	=118	=118	=118	=118	=118	=118	=118	=118	=118
8.C/L	.	8.c/L	.	8.g/L	.	8.ee\L	8.c/L	8.cc\L	8.g/L	.	8.ee\L	.
16C/Jk	.	16c/Jk	.	16g/Jk	.	16ee\Jk	16c/Jk	16cc\Jk	16g/Jk	.	16ee\Jk	.
*	*	*	*	*	*	*	*	*	*Xtuplet	*	*Xtuplet	*
!	!	!	!	!	!	!	!	!	!LO:TX:a:t=problem:triole bez oznaczenia	!	!LO:TX:a:t=problem:triole bez oznaczenia	!
4C/	.	4c/	.	12g/L	.	12ee\L	4c/	4cc\	12g/L	.	12ee\L	.
.	.	.	.	12f/	.	12dd\	.	.	12f/	.	12dd\	.
.	.	.	.	12g/J	.	12ee\J	.	.	12g/J	.	12ee\J	.
!	!	!	!	!	!	!LO:LB:g=original	!	!	!	!	!	!
=119	=119	=119	=119	=119	=119	=119	=119	=119	=119	=119	=119	=119
8F\L	.	8.f\L	.	8.a/L	.	8.ff\L	8.c/L	8.cc\L	8.a/L	.	8.ff\L	.
8F\J	.	.	.	.	.	.	.	.	.	.	.	.
.	.	16f\Jk	.	16a/Jk	.	16ff\Jk	16c/Jk	16cc\Jk	16a/Jk	.	16ff\Jk	.
4F\	.	4f\	.	12a/L	.	12ff\L	4c/	4cc\	4a/	.	4ff\	.
.	.	.	.	12g/	.	12ee\	.	.	.	.	.	.
.	.	.	.	12a/J	.	12ff\J	.	.	.	.	.	.
=120	=120	=120	=120	=120	=120	=120	=120	=120	=120	=120	=120	=120
4G\	.	4g\	.	8g/L	.	8ee\L	4r	4r	8g/L	.	8ee\L	.
.	.	.	.	8f/	.	8dd\	.	.	8f/	.	8dd\	.
4GG/	.	4G/	.	8e/	.	8cc\	4g/	4g/	8e/	.	8cc\	.
.	.	.	.	8d/J	.	8b\J	.	.	8d/J	.	8b\J	.
!LO:LB:g=original	!	!	!	!	!	!	!	!LO:LB:g=original	!	!	!	!
=121	=121	=121	=121	=121	=121	=121	=121	=121	=121	=121	=121	=121
4C/	.	4c\	.	4e/	p	4cc\	2c/	2cc\	4e/	.	4cc\	.
4r	.	4r	.	12c/L	.	12e'/L	.	.	4r	.	4r	.
.	.	.	.	12d'/	.	12f'/	.	.	.	.	.	.
.	.	.	.	12e'/J	.	12g'/J	.	.	.	.	.	.
=122	=122	=122	=122	=122	=122	=122	=122	=122	=122	=122	=122	=122
2r	.	2r	.	12f'/L	.	12a\L	2c/	2cc\	2cc\	.	2cc\	.
.	.	.	.	12g'/	.	12b\	.	.	.	.	.	.
.	.	.	.	12a/J	.	12cc\J	.	.	.	.	.	.
.	.	.	.	12a'/L	.	12cc\L	.	.	.	.	.	.
.	.	.	.	12g'/	.	12b\	.	.	.	.	.	.
.	.	.	.	12f/J	.	12a\J	.	.	.	.	.	.
!	!	!	!	!LO:LB:g=original	!	!	!LO:LB:g=original	!	!	!	!	!
=123	=123	=123	=123	=123	=123	=123	=123	=123	=123	=123	=123	=123
4r	.	4r	.	4e/	f	4g/	4c/	4cc\	4cc\	.	4cc\	.
*	*	*	*	*^	*	*^	*	*	*	*	*	*
12A\L	.	12a\L	.	4e/	4c\	.	4cc/	4g\	4cc\	4ee\	4e/	.	4cc\	.
12G\	.	12g\	.	.	.	.	.	.	.	.	.	.	.	.
12A\J	.	12a\J	.	.	.	.	.	.	.	.	.	.	.	.
*	*	*	*	*v	*v	*	*	*	*	*	*	*	*	*
*	*	*	*	*	*	*v	*v	*	*	*	*	*	*
!	!	!	!	!	!	!	!	!	!	!	!LO:LB:g=original	!
=124	=124	=124	=124	=124	=124	=124	=124	=124	=124	=124	=124	=124
12F\L	.	12f\L	.	4A/ 4f	.	4f/ 4dd	4dd\	4ff\	4f/	.	4dd\	.
12E\	.	12e\	.	.	.	.	.	.	.	.	.	.
12F\J	.	12f\J	.	.	.	.	.	.	.	.	.	.
12G\L	.	12g\L	.	4G/ 4f	.	4d/ 4b	4g\	4dd\	4d/	.	4b\	.
12F\	.	12f\	.	.	.	.	.	.	.	.	.	.
12G\J	.	12g\J	.	.	.	.	.	.	.	.	.	.
=125	=125	=125	=125	=125	=125	=125	=125	=125	=125	=125	=125	=125
4C/	.	4c/	.	4G/ 4e	.	4e/ 4cc	2c/	2cc\	4e/	.	4cc\	.
4r	.	4r	.	12cc'\L	p	12ee\L	.	.	4r	.	4r	.
.	.	.	.	12dd'\	.	12ff\	.	.	.	.	.	.
.	.	.	.	12ee'\J	.	12gg\J	.	.	.	.	.	.
!	!	!LO:g=original	!	!	!	!	!	!	!	!	!	!
=126	=126	=126	=126	=126	=126	=126	=126	=126	=126	=126	=126	=126
2r	.	2r	.	12ff'\L	.	12aa\L	2c/	2cc\	2cc\	.	2ccc\	p
.	.	.	.	12gg'\	.	12bb\	.	.	.	.	.	.
.	.	.	.	12aa'\J	.	12ccc\J	.	.	.	.	.	.
.	.	.	.	12aa'\L	.	12ccc\L	.	.	.	.	.	.
.	.	.	.	12gg'\	.	12bb\	.	.	.	.	.	.
.	.	.	.	12ff'\J	.	12aa\J	.	.	.	.	.	.
!	!	!	!	!	!	!	!	!	!LO:LB:g=original	!	!	!
=127	=127	=127	=127	=127	=127	=127	=127	=127	=127	=127	=127	=127
*	*	*	*	*^	*	*	*	*	*	*	*	*
4r	.	4r	.	4ryy	4ee\	.	4gg\	4c/	4cc\	4cc\	.	4ccc\	f
12B\L	.	12a\L	.	4ee/	4cc\	f	4g/ 4ee 4ccc	4cc\	4ee\	4ee\	.	4ccc\	.
12A\	.	12g\	.	.	.	.	.	.	.	.	.	.	.
12B\J	.	12a\J	.	.	.	.	.	.	.	.	.	.	.
*	*	*	*	*v	*v	*	*	*	*	*	*	*	*
=128	=128	=128	=128	=128	=128	=128	=128	=128	=128	=128	=128	=128
*	*	*	*	*	*	*^	*	*	*	*	*	*
12F\L	.	12f\L	.	4a/ 4ff	.	4ddd/	4ff\	4cc\	4ff\	4ff\	.	4ddd\	.
12E\	.	12e\	.	.	.	.	.	.	.	.	.	.	.
12F\J	.	12f\J	.	.	.	.	.	.	.	.	.	.	.
*	*	*	*	*^	*	*	*	*	*	*	*	*	*
12G\L	.	12g\L	.	4dd/	4g\	.	4bb/	4dd\	4g\	4dd\	4dd\	.	4bb\	.
12F\	.	12f\	.	.	.	.	.	.	.	.	.	.	.	.
12G\J	.	12g\J	.	.	.	.	.	.	.	.	.	.	.	.
*	*	*	*	*v	*v	*	*	*	*	*	*	*	*	*
*	*	*	*	*	*	*v	*v	*	*	*	*	*	*
=129	=129	=129	=129	=129	=129	=129	=129	=129	=129	=129	=129	=129
4C/	.	4c/	.	4G/ 4e 4cc	.	4g/ 4ee 4ccc	4e/	4cc\	4ee\	.	4ccc\	.
4r	.	4r	.	8cc\L	.	8ccc\L	4r	4r	4r	.	4r	.
.	.	.	.	8g\J	.	8gg\J	.	.	.	.	.	.
=130	=130	=130	=130	=130	=130	=130	=130	=130	=130	=130	=130	=130
4C/	.	4c/	.	4G/ 4e 4cc	.	4g/ 4ee 4ccc	4e/	4cc\	4ee\	.	4ccc\	.
4r	.	4r	.	8cc\L	.	8ccc\L	4r	4r	4r	.	4r	.
.	.	.	.	8g\J	.	8gg\J	.	.	.	.	.	.
=131	=131	=131	=131	=131	=131	=131	=131	=131	=131	=131	=131	=131
4C/	.	4c/	.	4G/ 4e 4g 4cc	.	4g/ 4ee 4ccc	4e/	4cc\	4ee\	.	4ccc\	.
4C/	.	4c/	.	4G/ 4e 4g 4cc	.	4g/ 4ee 4ccc	4e/	4cc\	4ee\	.	4ccc\	.
=132	=132	=132	=132	=132	=132	=132	=132	=132	=132	=132	=132	=132
!	!	!	!	!	!	!LO:TX:a:t=SIC:s=4c	!	!	!	!	!	!
4C/	.	4c/	.	4G/ 4e 4cc	.	4A/ 4g 4ee 4ccc	4e/	4cc\	4ee\	.	4ccc\	.
!	!	!LO:TX:a:t=Finis	!	!	!	!	!LO:TX:b:t=Finis	!LO:TX:b:t=Finis	!LO:TX:a:t=Finis	!	!LO:TX:a:t=Finis	!
4r	.	4r	.	4r	.	4r	4r	4r	4r	.	4r	.
=:|!	=:|!	=:|!	=:|!	=:|!	=:|!	=:|!	=:|!	=:|!	=:|!	=:|!	=:|!	=:|!
*-	*-	*-	*-	*-	*-	*-	*-	*-	*-	*-	*-	*-
!!!system-decoration: [(g1)][(g2)][(g3)]{(g4)}
!!!RDF**kern: >= above
!!!RDF**kern: <= below
!!!RDF**dynam: p=pi
!!!RDF**dynam: f=fr
!!!ENC: Anna Matuszewska
!!!END: 2020-07-23
